(/Applications/pcbgcode.repo/pcb-gcode.ulp)
(Copyright 2005 - 2012 by John Johnson)
(See readme.txt for licensing terms.)
(This file generated from the board:)
(.../eurorack/EFM_slide/eagle/efm_slide.brd)
(Current profile is .../pcbgcode.repo/profiles/mach.pp  )
(This file generated 6/16/15 9:41 PM)
(Settings from pcb-machine.h)
(spindle on time = 0.0000)
(  Tool Size)
(0.0100  )
(spindle speed = 30000.0000)
(tool change at 0.0000  0.0000  3.0000  )
(feed rate xy = F20    )
(feed rate z  = F10    )
(Z Axis Settings)
(  High     Up        Down     Drill)
(1.0000  	0.0500  	-0.0040 	-0.0730 )
(Settings from pcb-defaults.h)
(isolate min = 0.0010)
(isolate max = 0.0050)
(isolate step = 0.0010)
(Generated bottom outlines, bottom drill, )
(Unit of measure: inch)
(Inch Mode)
G20
(Absolute Coordinates)
G90
S30000
G00 Z1.0000  
G00 X0.0000  Y0.0000  
M03
G04 P0.000000
G00 Z0.0500  
G00 X-0.1658 Y0.0881  
G01 Z-0.0040 F10    
G01 X-0.1712 Y0.0826  F20    
G01 X-0.1775 Y0.0781  
G01 X-0.1843 Y0.0746  
G01 X-0.1917 Y0.0722  
G01 X-0.1993 Y0.0710  
G01 X-0.2070 Y0.0710  
G01 X-0.2146 Y0.0722  
G01 X-0.2220 Y0.0746  
G01 X-0.2288 Y0.0781  
G01 X-0.2351 Y0.0826  
G01 X-0.2405 Y0.0881  
G01 X-0.2451 Y0.0943  
G01 X-0.2485 Y0.1010  
G01 X-0.3547 Y0.1010  
G01 X-0.3581 Y0.0943  
G01 X-0.3626 Y0.0881  
G01 X-0.3681 Y0.0826  
G01 X-0.3743 Y0.0781  
G01 X-0.3812 Y0.0746  
G01 X-0.3885 Y0.0722  
G01 X-0.3961 Y0.0710  
G01 X-0.4039 Y0.0710  
G01 X-0.4115 Y0.0722  
G01 X-0.4188 Y0.0746  
G01 X-0.4257 Y0.0781  
G01 X-0.4319 Y0.0826  
G01 X-0.4374 Y0.0881  
G01 X-0.4388 Y0.0900  
G01 X-0.4660 Y0.0827  
G01 X-0.5271 Y0.0310  
G01 X-0.5283 Y0.0298  
G01 X-0.5290 Y0.0294  
G01 X-0.5296 Y0.0289  
G01 X-0.5312 Y0.0282  
G01 X-0.5327 Y0.0273  
G01 X-0.5334 Y0.0271  
G01 X-0.5342 Y0.0267  
G01 X-0.5358 Y0.0264  
G01 X-0.5375 Y0.0260  
G01 X-0.5383 Y0.0260  
G01 X-0.5391 Y0.0259  
G01 X-0.5408 Y0.0260  
G01 X-0.6388 Y0.0260  
G01 X-0.6401 Y0.0258  
G01 X-0.6413 Y0.0260  
G01 X-0.6425 Y0.0260  
G01 X-0.6438 Y0.0263  
G01 X-0.6451 Y0.0265  
G01 X-0.6462 Y0.0270  
G01 X-0.6473 Y0.0273  
G01 X-0.6485 Y0.0280  
G01 X-0.6497 Y0.0285  
G01 X-0.6506 Y0.0292  
G01 X-0.6517 Y0.0298  
G01 X-0.6526 Y0.0307  
G01 X-0.6956 Y0.0642  
G01 X-0.6967 Y0.0648  
G01 X-0.6976 Y0.0657  
G01 X-0.6986 Y0.0665  
G01 X-0.6994 Y0.0675  
G01 X-0.7002 Y0.0683  
G01 X-0.7009 Y0.0695  
G01 X-0.7017 Y0.0705  
G01 X-0.7021 Y0.0716  
G01 X-0.7027 Y0.0727  
G01 X-0.7030 Y0.0739  
G01 X-0.7035 Y0.0752  
G01 X-0.7037 Y0.0763  
G01 X-0.7040 Y0.0775  
G01 X-0.7040 Y0.0788  
G01 X-0.7042 Y0.0801  
G01 X-0.7040 Y0.0813  
G01 X-0.7040 Y0.1778  
G01 X-0.7041 Y0.1780  
G01 X-0.7040 Y0.1803  
G01 X-0.7040 Y0.1825  
G01 X-0.7039 Y0.1828  
G01 X-0.6990 Y0.3653  
G01 X-0.6990 Y0.3675  
G01 X-0.6989 Y0.3678  
G01 X-0.6989 Y0.3680  
G01 X-0.6983 Y0.3702  
G01 X-0.6977 Y0.3723  
G01 X-0.6976 Y0.3726  
G01 X-0.6975 Y0.3728  
G01 X-0.6963 Y0.3747  
G01 X-0.6952 Y0.3767  
G01 X-0.6950 Y0.3769  
G01 X-0.6949 Y0.3771  
G01 X-0.6933 Y0.3786  
G01 X-0.6917 Y0.3802  
G01 X-0.6914 Y0.3803  
G01 X-0.6913 Y0.3805  
G01 X-0.6893 Y0.3816  
G01 X-0.6873 Y0.3827  
G01 X-0.6871 Y0.3828  
G01 X-0.6869 Y0.3829  
G01 X-0.6847 Y0.3834  
G01 X-0.6825 Y0.3840  
G01 X-0.6822 Y0.3840  
G01 X-0.6820 Y0.3841  
G01 X-0.6797 Y0.3840  
G01 X-0.4795 Y0.3840  
G01 X-0.2681 Y0.4897  
G01 X-0.3595 Y0.5810  
G01 X-0.3632 Y0.5785  
G01 X-0.3696 Y0.5759  
G01 X-0.3765 Y0.5745  
G01 X-0.3835 Y0.5745  
G01 X-0.3904 Y0.5759  
G01 X-0.3968 Y0.5785  
G01 X-0.4026 Y0.5824  
G01 X-0.4076 Y0.5874  
G01 X-0.4115 Y0.5932  
G01 X-0.4141 Y0.5996  
G01 X-0.4155 Y0.6065  
G01 X-0.4155 Y0.6135  
G01 X-0.4141 Y0.6204  
G01 X-0.4115 Y0.6268  
G01 X-0.4076 Y0.6326  
G01 X-0.4026 Y0.6376  
G01 X-0.3968 Y0.6415  
G01 X-0.3904 Y0.6441  
G01 X-0.3835 Y0.6455  
G01 X-0.3765 Y0.6455  
G01 X-0.3696 Y0.6441  
G01 X-0.3632 Y0.6415  
G01 X-0.3574 Y0.6376  
G01 X-0.3524 Y0.6326  
G01 X-0.3485 Y0.6268  
G01 X-0.3459 Y0.6204  
G01 X-0.3454 Y0.6178  
G01 X-0.2314 Y0.5038  
G01 X-0.2290 Y0.5030  
G01 X-0.2266 Y0.5022  
G01 X-0.1306 Y0.4702  
G01 X-0.1280 Y0.4728  
G01 X-0.1225 Y0.4768  
G01 X-0.1165 Y0.4798  
G01 X-0.1101 Y0.4819  
G01 X-0.1034 Y0.4830  
G01 X-0.0966 Y0.4830  
G01 X-0.0899 Y0.4819  
G01 X-0.0835 Y0.4798  
G01 X-0.0775 Y0.4768  
G01 X-0.0720 Y0.4728  
G01 X-0.0672 Y0.4680  
G01 X-0.0632 Y0.4625  
G01 X-0.0602 Y0.4565  
G01 X-0.0581 Y0.4501  
G01 X-0.0570 Y0.4434  
G01 X-0.0570 Y0.4366  
G01 X-0.0581 Y0.4299  
G01 X-0.0602 Y0.4235  
G01 X-0.0632 Y0.4175  
G01 X-0.0672 Y0.4120  
G01 X-0.0720 Y0.4072  
G01 X-0.0775 Y0.4032  
G01 X-0.0835 Y0.4002  
G01 X-0.0899 Y0.3981  
G01 X-0.0966 Y0.3970  
G01 X-0.1034 Y0.3970  
G01 X-0.1101 Y0.3981  
G01 X-0.1165 Y0.4002  
G01 X-0.1225 Y0.4032  
G01 X-0.1280 Y0.4072  
G01 X-0.1328 Y0.4120  
G01 X-0.1368 Y0.4175  
G01 X-0.1398 Y0.4235  
G01 X-0.1419 Y0.4299  
G01 X-0.1426 Y0.4342  
G01 X-0.2335 Y0.4645  
G01 X-0.4660 Y0.3483  
G01 X-0.4677 Y0.3473  
G01 X-0.4682 Y0.3471  
G01 X-0.4687 Y0.3469  
G01 X-0.4706 Y0.3465  
G01 X-0.4725 Y0.3460  
G01 X-0.4731 Y0.3460  
G01 X-0.4736 Y0.3459  
G01 X-0.4756 Y0.3460  
G01 X-0.6615 Y0.3460  
G01 X-0.6660 Y0.1797  
G01 X-0.6660 Y0.0893  
G01 X-0.6335 Y0.0640  
G01 X-0.5470 Y0.0640  
G01 X-0.4879 Y0.1140  
G01 X-0.4866 Y0.1152  
G01 X-0.4860 Y0.1156  
G01 X-0.4854 Y0.1161  
G01 X-0.4838 Y0.1169  
G01 X-0.4823 Y0.1177  
G01 X-0.4816 Y0.1179  
G01 X-0.4808 Y0.1183  
G01 X-0.4791 Y0.1186  
G01 X-0.4485 Y0.1267  
G01 X-0.4478 Y0.1315  
G01 X-0.4454 Y0.1388  
G01 X-0.4419 Y0.1457  
G01 X-0.4374 Y0.1519  
G01 X-0.4319 Y0.1574  
G01 X-0.4257 Y0.1619  
G01 X-0.4188 Y0.1654  
G01 X-0.4115 Y0.1678  
G01 X-0.4039 Y0.1690  
G01 X-0.3961 Y0.1690  
G01 X-0.3885 Y0.1678  
G01 X-0.3812 Y0.1654  
G01 X-0.3743 Y0.1619  
G01 X-0.3681 Y0.1574  
G01 X-0.3626 Y0.1519  
G01 X-0.3581 Y0.1457  
G01 X-0.3547 Y0.1390  
G01 X-0.2485 Y0.1390  
G01 X-0.2451 Y0.1457  
G01 X-0.2405 Y0.1519  
G01 X-0.2351 Y0.1574  
G01 X-0.2288 Y0.1619  
G01 X-0.2220 Y0.1654  
G01 X-0.2146 Y0.1678  
G01 X-0.2070 Y0.1690  
G01 X-0.1993 Y0.1690  
G01 X-0.1917 Y0.1678  
G01 X-0.1843 Y0.1654  
G01 X-0.1775 Y0.1619  
G01 X-0.1712 Y0.1574  
G01 X-0.1658 Y0.1519  
G01 X-0.1612 Y0.1457  
G01 X-0.1577 Y0.1388  
G01 X-0.1554 Y0.1315  
G01 X-0.1541 Y0.1239  
G01 X-0.1541 Y0.1161  
G01 X-0.1554 Y0.1085  
G01 X-0.1577 Y0.1012  
G01 X-0.1612 Y0.0943  
G01 X-0.1658 Y0.0881  
G00 Z0.0500  
G00 X-0.1513 Y0.2710  
G01 Z-0.0040 F10    
G01 X-0.5614 Y0.2710  F20    
G01 X-0.5632 Y0.2675  
G01 X-0.5672 Y0.2620  
G01 X-0.5720 Y0.2572  
G01 X-0.5775 Y0.2532  
G01 X-0.5789 Y0.2525  
G01 X-0.5789 Y0.1657  
G01 X-0.5780 Y0.1654  
G01 X-0.5712 Y0.1619  
G01 X-0.5649 Y0.1574  
G01 X-0.5595 Y0.1519  
G01 X-0.5549 Y0.1457  
G01 X-0.5514 Y0.1388  
G01 X-0.5491 Y0.1315  
G01 X-0.5479 Y0.1239  
G01 X-0.5479 Y0.1161  
G01 X-0.5491 Y0.1085  
G01 X-0.5514 Y0.1012  
G01 X-0.5549 Y0.0943  
G01 X-0.5595 Y0.0881  
G01 X-0.5649 Y0.0826  
G01 X-0.5712 Y0.0781  
G01 X-0.5780 Y0.0746  
G01 X-0.5854 Y0.0722  
G01 X-0.5930 Y0.0710  
G01 X-0.6007 Y0.0710  
G01 X-0.6083 Y0.0722  
G01 X-0.6157 Y0.0746  
G01 X-0.6225 Y0.0781  
G01 X-0.6288 Y0.0826  
G01 X-0.6342 Y0.0881  
G01 X-0.6388 Y0.0943  
G01 X-0.6423 Y0.1012  
G01 X-0.6446 Y0.1085  
G01 X-0.6459 Y0.1161  
G01 X-0.6459 Y0.1239  
G01 X-0.6446 Y0.1315  
G01 X-0.6423 Y0.1388  
G01 X-0.6388 Y0.1457  
G01 X-0.6342 Y0.1519  
G01 X-0.6288 Y0.1574  
G01 X-0.6225 Y0.1619  
G01 X-0.6157 Y0.1654  
G01 X-0.6149 Y0.1657  
G01 X-0.6149 Y0.2496  
G01 X-0.6165 Y0.2502  
G01 X-0.6225 Y0.2532  
G01 X-0.6280 Y0.2572  
G01 X-0.6328 Y0.2620  
G01 X-0.6368 Y0.2675  
G01 X-0.6398 Y0.2735  
G01 X-0.6419 Y0.2799  
G01 X-0.6430 Y0.2866  
G01 X-0.6430 Y0.2934  
G01 X-0.6419 Y0.3001  
G01 X-0.6398 Y0.3065  
G01 X-0.6368 Y0.3125  
G01 X-0.6328 Y0.3180  
G01 X-0.6280 Y0.3228  
G01 X-0.6225 Y0.3268  
G01 X-0.6165 Y0.3298  
G01 X-0.6101 Y0.3319  
G01 X-0.6034 Y0.3330  
G01 X-0.5966 Y0.3330  
G01 X-0.5899 Y0.3319  
G01 X-0.5835 Y0.3298  
G01 X-0.5775 Y0.3268  
G01 X-0.5720 Y0.3228  
G01 X-0.5672 Y0.3180  
G01 X-0.5632 Y0.3125  
G01 X-0.5614 Y0.3090  
G01 X-0.1564 Y0.3090  
G01 X-0.0440 Y0.3944  
G01 X-0.0440 Y0.5321  
G01 X-0.1589 Y0.6470  
G01 X-0.2874 Y0.6470  
G01 X-0.2919 Y0.6482  
G01 X-0.2961 Y0.6506  
G01 X-0.3200 Y0.6745  
G01 X-0.3607 Y0.6745  
G01 X-0.3629 Y0.6754  
G01 X-0.3646 Y0.6771  
G01 X-0.3655 Y0.6793  
G01 X-0.3655 Y0.7407  
G01 X-0.3646 Y0.7429  
G01 X-0.3629 Y0.7446  
G01 X-0.3607 Y0.7455  
G01 X-0.2993 Y0.7455  
G01 X-0.2971 Y0.7446  
G01 X-0.2954 Y0.7429  
G01 X-0.2945 Y0.7407  
G01 X-0.2945 Y0.7000  
G01 X-0.2775 Y0.6830  
G01 X-0.1580 Y0.6830  
G01 X-0.1580 Y0.7515  
G01 X-0.1601 Y0.7515  
G01 X-0.1885 Y0.7799  
G01 X-0.1885 Y0.8201  
G01 X-0.1601 Y0.8485  
G01 X-0.1199 Y0.8485  
G01 X-0.0915 Y0.8201  
G01 X-0.0915 Y0.7799  
G01 X-0.1199 Y0.7515  
G01 X-0.1220 Y0.7515  
G01 X-0.1220 Y0.6639  
G01 X-0.0133 Y0.5552  
G01 X-0.0098 Y0.5517  
G01 X-0.0073 Y0.5473  
G01 X-0.0060 Y0.5425  
G01 X-0.0060 Y0.3862  
G01 X-0.0058 Y0.3849  
G01 X-0.0060 Y0.3837  
G01 X-0.0060 Y0.3825  
G01 X-0.0063 Y0.3812  
G01 X-0.0065 Y0.3800  
G01 X-0.0070 Y0.3788  
G01 X-0.0073 Y0.3777  
G01 X-0.0079 Y0.3765  
G01 X-0.0084 Y0.3753  
G01 X-0.0092 Y0.3744  
G01 X-0.0098 Y0.3733  
G01 X-0.0107 Y0.3724  
G01 X-0.0115 Y0.3714  
G01 X-0.0125 Y0.3707  
G01 X-0.0133 Y0.3698  
G01 X-0.0145 Y0.3691  
G01 X-0.1375 Y0.2757  
G01 X-0.1383 Y0.2748  
G01 X-0.1395 Y0.2741  
G01 X-0.1405 Y0.2734  
G01 X-0.1416 Y0.2729  
G01 X-0.1427 Y0.2723  
G01 X-0.1439 Y0.2720  
G01 X-0.1451 Y0.2715  
G01 X-0.1463 Y0.2713  
G01 X-0.1475 Y0.2710  
G01 X-0.1488 Y0.2710  
G01 X-0.1501 Y0.2708  
G01 X-0.1513 Y0.2710  
G00 Z0.0500  
G00 X-0.4672 Y0.4120  
G01 Z-0.0040 F10    
G01 X-0.4720 Y0.4072  F20    
G01 X-0.4775 Y0.4032  
G01 X-0.4835 Y0.4002  
G01 X-0.4899 Y0.3981  
G01 X-0.4966 Y0.3970  
G01 X-0.5034 Y0.3970  
G01 X-0.5101 Y0.3981  
G01 X-0.5165 Y0.4002  
G01 X-0.5225 Y0.4032  
G01 X-0.5280 Y0.4072  
G01 X-0.5328 Y0.4120  
G01 X-0.5368 Y0.4175  
G01 X-0.5398 Y0.4233  
G01 X-1.1700 Y0.4610  
G01 X-1.1714 Y0.4609  
G01 X-1.1725 Y0.4611  
G01 X-1.1736 Y0.4612  
G01 X-1.1749 Y0.4616  
G01 X-1.1763 Y0.4619  
G01 X-1.1773 Y0.4624  
G01 X-1.1784 Y0.4628  
G01 X-1.1795 Y0.4635  
G01 X-1.3365 Y0.5420  
G01 X-1.3367 Y0.5420  
G01 X-1.3387 Y0.5431  
G01 X-1.3407 Y0.5441  
G01 X-1.3409 Y0.5443  
G01 X-1.3411 Y0.5444  
G01 X-1.3428 Y0.5459  
G01 X-1.3445 Y0.5474  
G01 X-1.3446 Y0.5476  
G01 X-1.3448 Y0.5478  
G01 X-1.3460 Y0.5497  
G01 X-1.3472 Y0.5516  
G01 X-1.3473 Y0.5518  
G01 X-1.3790 Y0.6025  
G01 X-1.3837 Y0.6025  
G01 X-1.3909 Y0.6039  
G01 X-1.3978 Y0.6068  
G01 X-1.4039 Y0.6109  
G01 X-1.4091 Y0.6161  
G01 X-1.4132 Y0.6222  
G01 X-1.4161 Y0.6291  
G01 X-1.4175 Y0.6363  
G01 X-1.4175 Y0.6437  
G01 X-1.4161 Y0.6509  
G01 X-1.4132 Y0.6578  
G01 X-1.4091 Y0.6639  
G01 X-1.4039 Y0.6691  
G01 X-1.3978 Y0.6732  
G01 X-1.3909 Y0.6761  
G01 X-1.3837 Y0.6775  
G01 X-1.3763 Y0.6775  
G01 X-1.3705 Y0.6763  
G01 X-1.3006 Y0.7463  
G01 X-1.2996 Y0.7482  
G01 X-1.3153 Y0.8617  
G01 X-1.3204 Y0.8651  
G01 X-1.3249 Y0.8696  
G01 X-1.3284 Y0.8748  
G01 X-1.3308 Y0.8807  
G01 X-1.3320 Y0.8868  
G01 X-1.3320 Y0.8932  
G01 X-1.3308 Y0.8993  
G01 X-1.3284 Y0.9052  
G01 X-1.3249 Y0.9104  
G01 X-1.3204 Y0.9149  
G01 X-1.3152 Y0.9184  
G01 X-1.3093 Y0.9208  
G01 X-1.3032 Y0.9220  
G01 X-1.2968 Y0.9220  
G01 X-1.2907 Y0.9208  
G01 X-1.2848 Y0.9184  
G01 X-1.2796 Y0.9149  
G01 X-1.2751 Y0.9104  
G01 X-1.2716 Y0.9052  
G01 X-1.2692 Y0.8993  
G01 X-1.2680 Y0.8932  
G01 X-1.2680 Y0.8868  
G01 X-1.2692 Y0.8807  
G01 X-1.2716 Y0.8748  
G01 X-1.2751 Y0.8696  
G01 X-1.2777 Y0.8671  
G01 X-1.2614 Y0.7493  
G01 X-1.2612 Y0.7486  
G01 X-1.2611 Y0.7469  
G01 X-1.2608 Y0.7451  
G01 X-1.2609 Y0.7444  
G01 X-1.2609 Y0.7436  
G01 X-1.2612 Y0.7419  
G01 X-1.2615 Y0.7402  
G01 X-1.2617 Y0.7395  
G01 X-1.2619 Y0.7387  
G01 X-1.2627 Y0.7372  
G01 X-1.2633 Y0.7355  
G01 X-1.2638 Y0.7349  
G01 X-1.2671 Y0.7282  
G01 X-1.2673 Y0.7277  
G01 X-1.2683 Y0.7260  
G01 X-1.2691 Y0.7243  
G01 X-1.2695 Y0.7238  
G01 X-1.2698 Y0.7233  
G01 X-1.2712 Y0.7220  
G01 X-1.2724 Y0.7205  
G01 X-1.2729 Y0.7202  
G01 X-1.3437 Y0.6495  
G01 X-1.3425 Y0.6437  
G01 X-1.3425 Y0.6363  
G01 X-1.3439 Y0.6291  
G01 X-1.3467 Y0.6225  
G01 X-1.3167 Y0.5746  
G01 X-1.1650 Y0.4987  
G01 X-0.5374 Y0.4613  
G01 X-0.5368 Y0.4625  
G01 X-0.5328 Y0.4680  
G01 X-0.5280 Y0.4728  
G01 X-0.5225 Y0.4768  
G01 X-0.5165 Y0.4798  
G01 X-0.5101 Y0.4819  
G01 X-0.5034 Y0.4830  
G01 X-0.4966 Y0.4830  
G01 X-0.4899 Y0.4819  
G01 X-0.4835 Y0.4798  
G01 X-0.4775 Y0.4768  
G01 X-0.4720 Y0.4728  
G01 X-0.4672 Y0.4680  
G01 X-0.4632 Y0.4625  
G01 X-0.4602 Y0.4565  
G01 X-0.4581 Y0.4501  
G01 X-0.4570 Y0.4434  
G01 X-0.4570 Y0.4366  
G01 X-0.4581 Y0.4299  
G01 X-0.4602 Y0.4235  
G01 X-0.4632 Y0.4175  
G01 X-0.4672 Y0.4120  
G00 Z0.0500  
G00 X-0.4526 Y0.6824  
G01 Z-0.0040 F10    
G01 X-0.4576 Y0.6874  F20    
G01 X-0.4607 Y0.6920  
G01 X-0.5570 Y0.6920  
G01 X-0.5570 Y0.6866  
G01 X-0.5581 Y0.6799  
G01 X-0.5602 Y0.6735  
G01 X-0.5632 Y0.6675  
G01 X-0.5672 Y0.6620  
G01 X-0.5720 Y0.6572  
G01 X-0.5775 Y0.6532  
G01 X-0.5835 Y0.6502  
G01 X-0.5899 Y0.6481  
G01 X-0.5966 Y0.6470  
G01 X-0.6034 Y0.6470  
G01 X-0.6101 Y0.6481  
G01 X-0.6165 Y0.6502  
G01 X-0.6225 Y0.6532  
G01 X-0.6271 Y0.6566  
G01 X-0.7077 Y0.5975  
G01 X-0.7070 Y0.5934  
G01 X-0.7070 Y0.5866  
G01 X-0.7081 Y0.5799  
G01 X-0.7102 Y0.5735  
G01 X-0.7132 Y0.5675  
G01 X-0.7172 Y0.5620  
G01 X-0.7220 Y0.5572  
G01 X-0.7275 Y0.5532  
G01 X-0.7335 Y0.5502  
G01 X-0.7399 Y0.5481  
G01 X-0.7466 Y0.5470  
G01 X-0.7534 Y0.5470  
G01 X-0.7601 Y0.5481  
G01 X-0.7665 Y0.5502  
G01 X-0.7725 Y0.5532  
G01 X-0.7780 Y0.5572  
G01 X-0.7828 Y0.5620  
G01 X-0.7868 Y0.5675  
G01 X-0.7898 Y0.5735  
G01 X-0.7919 Y0.5799  
G01 X-0.7930 Y0.5866  
G01 X-0.7930 Y0.5934  
G01 X-0.7919 Y0.6001  
G01 X-0.7898 Y0.6065  
G01 X-0.7868 Y0.6125  
G01 X-0.7828 Y0.6180  
G01 X-0.7780 Y0.6228  
G01 X-0.7725 Y0.6268  
G01 X-0.7665 Y0.6298  
G01 X-0.7601 Y0.6319  
G01 X-0.7534 Y0.6330  
G01 X-0.7466 Y0.6330  
G01 X-0.7399 Y0.6319  
G01 X-0.7335 Y0.6298  
G01 X-0.7301 Y0.6281  
G01 X-0.6430 Y0.6920  
G01 X-0.6430 Y0.6934  
G01 X-0.6419 Y0.7001  
G01 X-0.6398 Y0.7065  
G01 X-0.6368 Y0.7125  
G01 X-0.6328 Y0.7180  
G01 X-0.6280 Y0.7228  
G01 X-0.6225 Y0.7268  
G01 X-0.6165 Y0.7298  
G01 X-0.6101 Y0.7319  
G01 X-0.6034 Y0.7330  
G01 X-0.6030 Y0.7330  
G01 X-0.5556 Y0.8159  
G01 X-0.5568 Y0.8175  
G01 X-0.5598 Y0.8235  
G01 X-0.5619 Y0.8299  
G01 X-0.5630 Y0.8366  
G01 X-0.5630 Y0.8434  
G01 X-0.5619 Y0.8501  
G01 X-0.5598 Y0.8565  
G01 X-0.5568 Y0.8625  
G01 X-0.5528 Y0.8680  
G01 X-0.5480 Y0.8728  
G01 X-0.5425 Y0.8768  
G01 X-0.5365 Y0.8798  
G01 X-0.5301 Y0.8819  
G01 X-0.5234 Y0.8830  
G01 X-0.5166 Y0.8830  
G01 X-0.5099 Y0.8819  
G01 X-0.5035 Y0.8798  
G01 X-0.4975 Y0.8768  
G01 X-0.4920 Y0.8728  
G01 X-0.4872 Y0.8680  
G01 X-0.4832 Y0.8625  
G01 X-0.4802 Y0.8565  
G01 X-0.4781 Y0.8501  
G01 X-0.4770 Y0.8434  
G01 X-0.4770 Y0.8366  
G01 X-0.4781 Y0.8299  
G01 X-0.4802 Y0.8235  
G01 X-0.4832 Y0.8175  
G01 X-0.4872 Y0.8120  
G01 X-0.4920 Y0.8072  
G01 X-0.4975 Y0.8032  
G01 X-0.5035 Y0.8002  
G01 X-0.5099 Y0.7981  
G01 X-0.5166 Y0.7970  
G01 X-0.5227 Y0.7970  
G01 X-0.5621 Y0.7280  
G01 X-0.4607 Y0.7280  
G01 X-0.4576 Y0.7326  
G01 X-0.4526 Y0.7376  
G01 X-0.4468 Y0.7415  
G01 X-0.4404 Y0.7441  
G01 X-0.4335 Y0.7455  
G01 X-0.4265 Y0.7455  
G01 X-0.4196 Y0.7441  
G01 X-0.4132 Y0.7415  
G01 X-0.4074 Y0.7376  
G01 X-0.4024 Y0.7326  
G01 X-0.3985 Y0.7268  
G01 X-0.3959 Y0.7204  
G01 X-0.3945 Y0.7135  
G01 X-0.3945 Y0.7065  
G01 X-0.3959 Y0.6996  
G01 X-0.3985 Y0.6932  
G01 X-0.4024 Y0.6874  
G01 X-0.4074 Y0.6824  
G01 X-0.4132 Y0.6785  
G01 X-0.4196 Y0.6759  
G01 X-0.4265 Y0.6745  
G01 X-0.4335 Y0.6745  
G01 X-0.4404 Y0.6759  
G01 X-0.4468 Y0.6785  
G01 X-0.4526 Y0.6824  
G00 Z0.0500  
G00 X-0.6772 Y0.8120  
G01 Z-0.0040 F10    
G01 X-0.6820 Y0.8072  F20    
G01 X-0.6875 Y0.8032  
G01 X-0.6935 Y0.8002  
G01 X-0.6999 Y0.7981  
G01 X-0.7066 Y0.7970  
G01 X-0.7134 Y0.7970  
G01 X-0.7201 Y0.7981  
G01 X-0.7265 Y0.8002  
G01 X-0.7325 Y0.8032  
G01 X-0.7380 Y0.8072  
G01 X-0.7428 Y0.8120  
G01 X-0.7468 Y0.8175  
G01 X-0.7498 Y0.8235  
G01 X-0.7519 Y0.8299  
G01 X-0.7530 Y0.8366  
G01 X-0.7530 Y0.8434  
G01 X-0.7519 Y0.8501  
G01 X-0.7498 Y0.8565  
G01 X-0.7468 Y0.8625  
G01 X-0.7428 Y0.8680  
G01 X-0.7381 Y0.8727  
G01 X-0.7376 Y0.8789  
G01 X-0.9112 Y0.7219  
G01 X-0.9119 Y0.7210  
G01 X-0.9123 Y0.7207  
G01 X-0.9126 Y0.7204  
G01 X-0.9134 Y0.7199  
G01 X-0.9141 Y0.7192  
G01 X-0.9151 Y0.7187  
G01 X-0.9160 Y0.7181  
G01 X-0.9164 Y0.7179  
G01 X-1.1072 Y0.5949  
G01 X-1.1070 Y0.5934  
G01 X-1.1070 Y0.5866  
G01 X-1.1081 Y0.5799  
G01 X-1.1102 Y0.5735  
G01 X-1.1132 Y0.5675  
G01 X-1.1172 Y0.5620  
G01 X-1.1220 Y0.5572  
G01 X-1.1275 Y0.5532  
G01 X-1.1335 Y0.5502  
G01 X-1.1399 Y0.5481  
G01 X-1.1466 Y0.5470  
G01 X-1.1534 Y0.5470  
G01 X-1.1601 Y0.5481  
G01 X-1.1665 Y0.5502  
G01 X-1.1725 Y0.5532  
G01 X-1.1780 Y0.5572  
G01 X-1.1828 Y0.5620  
G01 X-1.1868 Y0.5675  
G01 X-1.1898 Y0.5735  
G01 X-1.1919 Y0.5799  
G01 X-1.1930 Y0.5866  
G01 X-1.1930 Y0.5934  
G01 X-1.1919 Y0.6001  
G01 X-1.1898 Y0.6065  
G01 X-1.1868 Y0.6125  
G01 X-1.1828 Y0.6180  
G01 X-1.1780 Y0.6228  
G01 X-1.1725 Y0.6268  
G01 X-1.1665 Y0.6298  
G01 X-1.1601 Y0.6319  
G01 X-1.1534 Y0.6330  
G01 X-1.1466 Y0.6330  
G01 X-1.1399 Y0.6319  
G01 X-1.1335 Y0.6298  
G01 X-1.1278 Y0.6269  
G01 X-0.9450 Y0.7447  
G01 X-0.9662 Y0.9610  
G01 X-0.9820 Y0.9767  
G01 X-0.9820 Y1.0033  
G01 X-0.9633 Y1.0220  
G01 X-0.9367 Y1.0220  
G01 X-0.9180 Y1.0033  
G01 X-0.9180 Y0.9767  
G01 X-0.9286 Y0.9662  
G01 X-0.9098 Y0.7744  
G01 X-0.7294 Y0.9376  
G01 X-0.7293 Y0.9378  
G01 X-0.7279 Y0.9390  
G01 X-0.7267 Y0.9402  
G01 X-0.7262 Y0.9404  
G01 X-0.7259 Y0.9408  
G01 X-0.7257 Y0.9409  
G01 X-0.7255 Y0.9411  
G01 X-0.7239 Y0.9418  
G01 X-0.7223 Y0.9427  
G01 X-0.7219 Y0.9428  
G01 X-0.7214 Y0.9430  
G01 X-0.7212 Y0.9431  
G01 X-0.7210 Y0.9432  
G01 X-0.7192 Y0.9435  
G01 X-0.7175 Y0.9440  
G01 X-0.7170 Y0.9440  
G01 X-0.7165 Y0.9441  
G01 X-0.7163 Y0.9441  
G01 X-0.7160 Y0.9441  
G01 X-0.7143 Y0.9440  
G01 X-0.1843 Y0.9440  
G01 X-0.1240 Y1.0215  
G01 X-0.1240 Y1.0558  
G01 X-0.1795 Y1.0996  
G01 X-0.1822 Y1.0970  
G01 X-0.2178 Y1.0970  
G01 X-0.2418 Y1.1210  
G01 X-0.2582 Y1.1210  
G01 X-0.2822 Y1.0970  
G01 X-0.3178 Y1.0970  
G01 X-0.3430 Y1.1222  
G01 X-0.3430 Y1.1578  
G01 X-0.3178 Y1.1830  
G01 X-0.2822 Y1.1830  
G01 X-0.2582 Y1.1590  
G01 X-0.2418 Y1.1590  
G01 X-0.2190 Y1.1818  
G01 X-0.2190 Y1.1982  
G01 X-0.2418 Y1.2210  
G01 X-0.2582 Y1.2210  
G01 X-0.2822 Y1.1970  
G01 X-0.3178 Y1.1970  
G01 X-0.3430 Y1.2222  
G01 X-0.3430 Y1.2578  
G01 X-0.3178 Y1.2830  
G01 X-0.2822 Y1.2830  
G01 X-0.2582 Y1.2590  
G01 X-0.2418 Y1.2590  
G01 X-0.2190 Y1.2818  
G01 X-0.2190 Y1.2982  
G01 X-0.2418 Y1.3210  
G01 X-0.2582 Y1.3210  
G01 X-0.2822 Y1.2970  
G01 X-0.3178 Y1.2970  
G01 X-0.3430 Y1.3222  
G01 X-0.3430 Y1.3578  
G01 X-0.3178 Y1.3830  
G01 X-0.2822 Y1.3830  
G01 X-0.2582 Y1.3590  
G01 X-0.2418 Y1.3590  
G01 X-0.2178 Y1.3830  
G01 X-0.1822 Y1.3830  
G01 X-0.1683 Y1.3691  
G01 X-0.1340 Y1.3792  
G01 X-0.1340 Y1.7960  
G01 X-0.6667 Y1.7960  
G01 X-1.1139 Y1.6373  
G01 X-1.1054 Y1.5806  
G01 X-1.0880 Y1.5633  
G01 X-1.0880 Y1.5367  
G01 X-1.1067 Y1.5180  
G01 X-1.1333 Y1.5180  
G01 X-1.1520 Y1.5367  
G01 X-1.1520 Y1.5633  
G01 X-1.1426 Y1.5726  
G01 X-1.1514 Y1.6310  
G01 X-1.2595 Y1.6310  
G01 X-1.2615 Y1.6309  
G01 X-1.2620 Y1.6310  
G01 X-1.2625 Y1.6310  
G01 X-1.2644 Y1.6315  
G01 X-1.4270 Y1.6660  
G01 X-1.6014 Y1.6660  
G01 X-1.7360 Y1.5128  
G01 X-1.7360 Y1.1088  
G01 X-1.5623 Y1.1006  
G01 X-1.6413 Y1.2501  
G01 X-1.6421 Y1.2513  
G01 X-1.6424 Y1.2521  
G01 X-1.6428 Y1.2529  
G01 X-1.6429 Y1.2531  
G01 X-1.6430 Y1.2533  
G01 X-1.6433 Y1.2547  
G01 X-1.6437 Y1.2560  
G01 X-1.6438 Y1.2569  
G01 X-1.6440 Y1.2577  
G01 X-1.6440 Y1.2580  
G01 X-1.6441 Y1.2582  
G01 X-1.6440 Y1.2596  
G01 X-1.6539 Y1.3829  
G01 X-1.6542 Y1.3849  
G01 X-1.6541 Y1.3854  
G01 X-1.6541 Y1.3860  
G01 X-1.6538 Y1.3879  
G01 X-1.6535 Y1.3898  
G01 X-1.6533 Y1.3904  
G01 X-1.6532 Y1.3909  
G01 X-1.6524 Y1.3927  
G01 X-1.6517 Y1.3945  
G01 X-1.6513 Y1.3949  
G01 X-1.6511 Y1.3954  
G01 X-1.6498 Y1.3969  
G01 X-1.5420 Y1.5392  
G01 X-1.5420 Y1.5633  
G01 X-1.5233 Y1.5820  
G01 X-1.4967 Y1.5820  
G01 X-1.4780 Y1.5633  
G01 X-1.4780 Y1.5367  
G01 X-1.4967 Y1.5180  
G01 X-1.5104 Y1.5180  
G01 X-1.6155 Y1.3793  
G01 X-1.6068 Y1.2713  
G01 X-1.4858 Y1.1996  
G01 X-1.4278 Y1.2060  
G01 X-1.4249 Y1.2104  
G01 X-1.4204 Y1.2149  
G01 X-1.4152 Y1.2184  
G01 X-1.4093 Y1.2208  
G01 X-1.4032 Y1.2220  
G01 X-1.3968 Y1.2220  
G01 X-1.3907 Y1.2208  
G01 X-1.3848 Y1.2184  
G01 X-1.3796 Y1.2149  
G01 X-1.3751 Y1.2104  
G01 X-1.3716 Y1.2052  
G01 X-1.3692 Y1.1993  
G01 X-1.3680 Y1.1932  
G01 X-1.3680 Y1.1868  
G01 X-1.3692 Y1.1807  
G01 X-1.3716 Y1.1748  
G01 X-1.3751 Y1.1696  
G01 X-1.3796 Y1.1651  
G01 X-1.3848 Y1.1616  
G01 X-1.3907 Y1.1592  
G01 X-1.3968 Y1.1580  
G01 X-1.4032 Y1.1580  
G01 X-1.4093 Y1.1592  
G01 X-1.4152 Y1.1616  
G01 X-1.4204 Y1.1651  
G01 X-1.4235 Y1.1683  
G01 X-1.4866 Y1.1613  
G01 X-1.4877 Y1.1610  
G01 X-1.4891 Y1.1610  
G01 X-1.4904 Y1.1608  
G01 X-1.4915 Y1.1610  
G01 X-1.4927 Y1.1610  
G01 X-1.4940 Y1.1614  
G01 X-1.4953 Y1.1616  
G01 X-1.4964 Y1.1621  
G01 X-1.4975 Y1.1624  
G01 X-1.4987 Y1.1631  
G01 X-1.4999 Y1.1636  
G01 X-1.5008 Y1.1643  
G01 X-1.5768 Y1.2093  
G01 X-1.5254 Y1.1120  
G01 X-1.5167 Y1.1120  
G01 X-1.4980 Y1.0933  
G01 X-1.4980 Y1.0667  
G01 X-1.5167 Y1.0480  
G01 X-1.5433 Y1.0480  
G01 X-1.5575 Y1.0623  
G01 X-1.7360 Y1.0708  
G01 X-1.7360 Y0.7798  
G01 X-1.7070 Y0.7260  
G01 X-1.5057 Y0.6673  
G01 X-1.4955 Y0.6775  
G01 X-1.4645 Y0.6775  
G01 X-1.4425 Y0.6555  
G01 X-1.4425 Y0.6245  
G01 X-1.4645 Y0.6025  
G01 X-1.4955 Y0.6025  
G01 X-1.5175 Y0.6245  
G01 X-1.5175 Y0.6311  
G01 X-1.7230 Y0.6911  
G01 X-1.7254 Y0.6918  
G01 X-1.7277 Y0.6925  
G01 X-1.7279 Y0.6925  
G01 X-1.7299 Y0.6938  
G01 X-1.7320 Y0.6951  
G01 X-1.7321 Y0.6951  
G01 X-1.7338 Y0.6969  
G01 X-1.7355 Y0.6987  
G01 X-1.7355 Y0.6988  
G01 X-1.7367 Y0.7009  
G01 X-1.7379 Y0.7031  
G01 X-1.7716 Y0.7657  
G01 X-1.7727 Y0.7677  
G01 X-1.7728 Y0.7679  
G01 X-1.7729 Y0.7682  
G01 X-1.7734 Y0.7704  
G01 X-1.7740 Y0.7725  
G01 X-1.7740 Y0.7728  
G01 X-1.7741 Y0.7731  
G01 X-1.7740 Y0.7753  
G01 X-1.7740 Y1.0931  
G01 X-1.7741 Y1.0936  
G01 X-1.7740 Y1.0956  
G01 X-1.7740 Y1.5194  
G01 X-1.7741 Y1.5213  
G01 X-1.7740 Y1.5219  
G01 X-1.7740 Y1.5225  
G01 X-1.7735 Y1.5243  
G01 X-1.7731 Y1.5262  
G01 X-1.7729 Y1.5267  
G01 X-1.7727 Y1.5273  
G01 X-1.7718 Y1.5290  
G01 X-1.7709 Y1.5307  
G01 X-1.7705 Y1.5311  
G01 X-1.7702 Y1.5317  
G01 X-1.7689 Y1.5330  
G01 X-1.6255 Y1.6961  
G01 X-1.6252 Y1.6967  
G01 X-1.6239 Y1.6980  
G01 X-1.6226 Y1.6994  
G01 X-1.6221 Y1.6998  
G01 X-1.6217 Y1.7002  
G01 X-1.6200 Y1.7011  
G01 X-1.6185 Y1.7022  
G01 X-1.6179 Y1.7024  
G01 X-1.6173 Y1.7027  
G01 X-1.6155 Y1.7032  
G01 X-1.6137 Y1.7038  
G01 X-1.6131 Y1.7038  
G01 X-1.6125 Y1.7040  
G01 X-1.6106 Y1.7040  
G01 X-1.6087 Y1.7041  
G01 X-1.6081 Y1.7040  
G01 X-1.4255 Y1.7040  
G01 X-1.4235 Y1.7041  
G01 X-1.4230 Y1.7040  
G01 X-1.4225 Y1.7040  
G01 X-1.4206 Y1.7035  
G01 X-1.2580 Y1.6690  
G01 X-1.1383 Y1.6690  
G01 X-0.6780 Y1.8323  
G01 X-0.6773 Y1.8327  
G01 X-0.6756 Y1.8332  
G01 X-0.6740 Y1.8337  
G01 X-0.6732 Y1.8338  
G01 X-0.6725 Y1.8340  
G01 X-0.6708 Y1.8340  
G01 X-0.6690 Y1.8341  
G01 X-0.6683 Y1.8340  
G01 X-0.1125 Y1.8340  
G01 X-0.1077 Y1.8327  
G01 X-0.1033 Y1.8302  
G01 X-0.0998 Y1.8267  
G01 X-0.0973 Y1.8223  
G01 X-0.0960 Y1.8175  
G01 X-0.0960 Y1.3652  
G01 X-0.0959 Y1.3630  
G01 X-0.0960 Y1.3627  
G01 X-0.0960 Y1.3625  
G01 X-0.0966 Y1.3603  
G01 X-0.0971 Y1.3581  
G01 X-0.0972 Y1.3579  
G01 X-0.0973 Y1.3577  
G01 X-0.0984 Y1.3557  
G01 X-0.0995 Y1.3537  
G01 X-0.0997 Y1.3535  
G01 X-0.0998 Y1.3533  
G01 X-0.1014 Y1.3517  
G01 X-0.1030 Y1.3501  
G01 X-0.1032 Y1.3500  
G01 X-0.1033 Y1.3498  
G01 X-0.1053 Y1.3487  
G01 X-0.1072 Y1.3475  
G01 X-0.1075 Y1.3474  
G01 X-0.1077 Y1.3473  
G01 X-0.1099 Y1.3467  
G01 X-0.1570 Y1.3328  
G01 X-0.1570 Y1.3222  
G01 X-0.1810 Y1.2982  
G01 X-0.1810 Y1.2818  
G01 X-0.1570 Y1.2578  
G01 X-0.1570 Y1.2222  
G01 X-0.1810 Y1.1982  
G01 X-0.1810 Y1.1818  
G01 X-0.1570 Y1.1578  
G01 X-0.1570 Y1.1303  
G01 X-0.0943 Y1.0808  
G01 X-0.0933 Y1.0802  
G01 X-0.0924 Y1.0792  
G01 X-0.0913 Y1.0784  
G01 X-0.0906 Y1.0775  
G01 X-0.0898 Y1.0767  
G01 X-0.0891 Y1.0755  
G01 X-0.0883 Y1.0744  
G01 X-0.0879 Y1.0733  
G01 X-0.0873 Y1.0723  
G01 X-0.0869 Y1.0710  
G01 X-0.0864 Y1.0697  
G01 X-0.0863 Y1.0686  
G01 X-0.0860 Y1.0675  
G01 X-0.0860 Y1.0661  
G01 X-0.0858 Y1.0647  
G01 X-0.0860 Y1.0636  
G01 X-0.0860 Y1.0162  
G01 X-0.0858 Y1.0149  
G01 X-0.0860 Y1.0137  
G01 X-0.0860 Y1.0125  
G01 X-0.0863 Y1.0112  
G01 X-0.0865 Y1.0099  
G01 X-0.0870 Y1.0088  
G01 X-0.0873 Y1.0077  
G01 X-0.0880 Y1.0065  
G01 X-0.0885 Y1.0053  
G01 X-0.0892 Y1.0044  
G01 X-0.0898 Y1.0033  
G01 X-0.0907 Y1.0024  
G01 X-0.1592 Y0.9144  
G01 X-0.1598 Y0.9133  
G01 X-0.1607 Y0.9124  
G01 X-0.1615 Y0.9114  
G01 X-0.1625 Y0.9106  
G01 X-0.1633 Y0.9098  
G01 X-0.1645 Y0.9091  
G01 X-0.1655 Y0.9083  
G01 X-0.1666 Y0.9079  
G01 X-0.1677 Y0.9073  
G01 X-0.1689 Y0.9070  
G01 X-0.1702 Y0.9065  
G01 X-0.1713 Y0.9063  
G01 X-0.1725 Y0.9060  
G01 X-0.1738 Y0.9060  
G01 X-0.1751 Y0.9058  
G01 X-0.1763 Y0.9060  
G01 X-0.6974 Y0.9060  
G01 X-0.6993 Y0.8817  
G01 X-0.6935 Y0.8798  
G01 X-0.6875 Y0.8768  
G01 X-0.6820 Y0.8728  
G01 X-0.6772 Y0.8680  
G01 X-0.6732 Y0.8625  
G01 X-0.6702 Y0.8565  
G01 X-0.6681 Y0.8501  
G01 X-0.6670 Y0.8434  
G01 X-0.6670 Y0.8366  
G01 X-0.6681 Y0.8299  
G01 X-0.6702 Y0.8235  
G01 X-0.6732 Y0.8175  
G01 X-0.6772 Y0.8120  
G00 Z0.0500  
G00 X-0.7401 Y0.9760  
G01 Z-0.0040 F10    
G01 X-0.8134 Y0.9760  F20    
G01 X-0.8142 Y0.9759  
G01 X-0.8159 Y0.9760  
G01 X-0.8175 Y0.9760  
G01 X-0.8183 Y0.9762  
G01 X-0.8192 Y0.9763  
G01 X-0.8207 Y0.9769  
G01 X-0.8223 Y0.9773  
G01 X-0.8231 Y0.9777  
G01 X-0.8239 Y0.9780  
G01 X-0.8252 Y0.9790  
G01 X-0.8267 Y0.9798  
G01 X-0.8273 Y0.9804  
G01 X-0.9375 Y1.0580  
G01 X-0.9633 Y1.0580  
G01 X-0.9707 Y1.0654  
G01 X-1.1096 Y1.0318  
G01 X-1.2616 Y0.9778  
G01 X-1.2619 Y0.9776  
G01 X-1.2640 Y0.9770  
G01 X-1.2660 Y0.9763  
G01 X-1.2663 Y0.9762  
G01 X-1.3513 Y0.9494  
G01 X-1.3718 Y0.9054  
G01 X-1.3716 Y0.9052  
G01 X-1.3692 Y0.8993  
G01 X-1.3680 Y0.8932  
G01 X-1.3680 Y0.8868  
G01 X-1.3692 Y0.8807  
G01 X-1.3716 Y0.8748  
G01 X-1.3751 Y0.8696  
G01 X-1.3796 Y0.8651  
G01 X-1.3848 Y0.8616  
G01 X-1.3907 Y0.8592  
G01 X-1.3968 Y0.8580  
G01 X-1.4032 Y0.8580  
G01 X-1.4093 Y0.8592  
G01 X-1.4152 Y0.8616  
G01 X-1.4204 Y0.8651  
G01 X-1.4249 Y0.8696  
G01 X-1.4284 Y0.8748  
G01 X-1.4308 Y0.8807  
G01 X-1.4320 Y0.8868  
G01 X-1.4320 Y0.8932  
G01 X-1.4308 Y0.8993  
G01 X-1.4284 Y0.9052  
G01 X-1.4249 Y0.9104  
G01 X-1.4204 Y0.9149  
G01 X-1.4152 Y0.9184  
G01 X-1.4093 Y0.9208  
G01 X-1.4063 Y0.9214  
G01 X-1.3831 Y0.9711  
G01 X-1.3830 Y0.9715  
G01 X-1.3820 Y0.9734  
G01 X-1.3812 Y0.9753  
G01 X-1.3809 Y0.9756  
G01 X-1.3807 Y0.9760  
G01 X-1.3793 Y0.9775  
G01 X-1.3779 Y0.9791  
G01 X-1.3776 Y0.9794  
G01 X-1.3773 Y0.9797  
G01 X-1.3756 Y0.9808  
G01 X-1.3738 Y0.9820  
G01 X-1.3735 Y0.9821  
G01 X-1.3731 Y0.9824  
G01 X-1.3711 Y0.9830  
G01 X-1.3691 Y0.9837  
G01 X-1.3687 Y0.9837  
G01 X-1.2760 Y1.0130  
G01 X-1.1228 Y1.0674  
G01 X-1.1219 Y1.0679  
G01 X-1.1204 Y1.0682  
G01 X-1.1190 Y1.0687  
G01 X-1.1180 Y1.0688  
G01 X-0.9820 Y1.1018  
G01 X-0.9820 Y1.1033  
G01 X-0.9633 Y1.1220  
G01 X-0.9367 Y1.1220  
G01 X-0.9180 Y1.1033  
G01 X-0.9180 Y1.0907  
G01 X-0.8090 Y1.0140  
G01 X-0.7424 Y1.0140  
G01 X-0.7422 Y1.0140  
G01 X-0.7399 Y1.0140  
G01 X-0.7375 Y1.0140  
G01 X-0.7374 Y1.0140  
G01 X-0.3806 Y1.0091  
G01 X-0.3430 Y1.0342  
G01 X-0.3430 Y1.0578  
G01 X-0.3178 Y1.0830  
G01 X-0.2822 Y1.0830  
G01 X-0.2582 Y1.0590  
G01 X-0.2418 Y1.0590  
G01 X-0.2178 Y1.0830  
G01 X-0.1822 Y1.0830  
G01 X-0.1570 Y1.0578  
G01 X-0.1570 Y1.0222  
G01 X-0.1822 Y0.9970  
G01 X-0.2178 Y0.9970  
G01 X-0.2418 Y1.0210  
G01 X-0.2582 Y1.0210  
G01 X-0.2822 Y0.9970  
G01 X-0.3178 Y0.9970  
G01 X-0.3228 Y1.0020  
G01 X-0.3630 Y0.9752  
G01 X-0.3635 Y0.9746  
G01 X-0.3651 Y0.9738  
G01 X-0.3665 Y0.9728  
G01 X-0.3673 Y0.9726  
G01 X-0.3679 Y0.9722  
G01 X-0.3696 Y0.9718  
G01 X-0.3713 Y0.9712  
G01 X-0.3720 Y0.9712  
G01 X-0.3728 Y0.9710  
G01 X-0.3745 Y0.9710  
G01 X-0.3763 Y0.9709  
G01 X-0.3770 Y0.9710  
G01 X-0.7401 Y0.9760  
G00 Z0.0500  
G00 X-0.7740 Y1.0360  
G01 Z-0.0040 F10    
G01 X-0.7763 Y1.0359  F20    
G01 X-0.7765 Y1.0359  
G01 X-0.7768 Y1.0359  
G01 X-0.7790 Y1.0364  
G01 X-0.7812 Y1.0369  
G01 X-0.7814 Y1.0370  
G01 X-0.7817 Y1.0370  
G01 X-0.7837 Y1.0381  
G01 X-0.7857 Y1.0391  
G01 X-0.7859 Y1.0393  
G01 X-0.7861 Y1.0394  
G01 X-0.7877 Y1.0409  
G01 X-0.7894 Y1.0424  
G01 X-0.7896 Y1.0426  
G01 X-0.7898 Y1.0428  
G01 X-0.7910 Y1.0447  
G01 X-0.8298 Y1.1029  
G01 X-0.9073 Y1.1805  
G01 X-1.0469 Y1.1712  
G01 X-1.0475 Y1.1710  
G01 X-1.0494 Y1.1710  
G01 X-1.0512 Y1.1709  
G01 X-1.0519 Y1.1710  
G01 X-1.0742 Y1.1710  
G01 X-1.0751 Y1.1696  
G01 X-1.0796 Y1.1651  
G01 X-1.0848 Y1.1616  
G01 X-1.0902 Y1.1594  
G01 X-1.1066 Y1.1101  
G01 X-1.1069 Y1.1088  
G01 X-1.1074 Y1.1078  
G01 X-1.1078 Y1.1066  
G01 X-1.1085 Y1.1055  
G01 X-1.1091 Y1.1044  
G01 X-1.1099 Y1.1034  
G01 X-1.1105 Y1.1024  
G01 X-1.1115 Y1.1016  
G01 X-1.1124 Y1.1006  
G01 X-1.1134 Y1.0999  
G01 X-1.1143 Y1.0991  
G01 X-1.1154 Y1.0985  
G01 X-1.1165 Y1.0978  
G01 X-1.1177 Y1.0974  
G01 X-1.1187 Y1.0969  
G01 X-1.1200 Y1.0966  
G01 X-1.3816 Y1.0078  
G01 X-1.3839 Y1.0070  
G01 X-1.3863 Y1.0062  
G01 X-1.4268 Y0.9927  
G01 X-1.4269 Y0.9926  
G01 X-1.4291 Y0.9919  
G01 X-1.4314 Y0.9912  
G01 X-1.4315 Y0.9912  
G01 X-1.4980 Y0.9702  
G01 X-1.4980 Y0.9667  
G01 X-1.5167 Y0.9480  
G01 X-1.5319 Y0.9480  
G01 X-1.6407 Y0.8175  
G01 X-1.6402 Y0.8165  
G01 X-1.6381 Y0.8101  
G01 X-1.6370 Y0.8034  
G01 X-1.6370 Y0.7966  
G01 X-1.6381 Y0.7899  
G01 X-1.6402 Y0.7835  
G01 X-1.6432 Y0.7775  
G01 X-1.6472 Y0.7720  
G01 X-1.6520 Y0.7672  
G01 X-1.6575 Y0.7632  
G01 X-1.6635 Y0.7602  
G01 X-1.6699 Y0.7581  
G01 X-1.6766 Y0.7570  
G01 X-1.6834 Y0.7570  
G01 X-1.6901 Y0.7581  
G01 X-1.6965 Y0.7602  
G01 X-1.7025 Y0.7632  
G01 X-1.7080 Y0.7672  
G01 X-1.7128 Y0.7720  
G01 X-1.7168 Y0.7775  
G01 X-1.7198 Y0.7835  
G01 X-1.7219 Y0.7899  
G01 X-1.7230 Y0.7966  
G01 X-1.7230 Y0.8034  
G01 X-1.7219 Y0.8101  
G01 X-1.7198 Y0.8165  
G01 X-1.7168 Y0.8225  
G01 X-1.7128 Y0.8280  
G01 X-1.7080 Y0.8328  
G01 X-1.7025 Y0.8368  
G01 X-1.6965 Y0.8398  
G01 X-1.6901 Y0.8419  
G01 X-1.6834 Y0.8430  
G01 X-1.6766 Y0.8430  
G01 X-1.6699 Y0.8419  
G01 X-1.6698 Y0.8419  
G01 X-1.5620 Y0.9713  
G01 X-1.5620 Y0.9933  
G01 X-1.5433 Y1.0120  
G01 X-1.5167 Y1.0120  
G01 X-1.5107 Y1.0060  
G01 X-1.4409 Y1.0281  
G01 X-1.3961 Y1.0430  
G01 X-1.1400 Y1.1300  
G01 X-1.1262 Y1.1716  
G01 X-1.1284 Y1.1748  
G01 X-1.1308 Y1.1807  
G01 X-1.1320 Y1.1868  
G01 X-1.1320 Y1.1932  
G01 X-1.1308 Y1.1993  
G01 X-1.1284 Y1.2052  
G01 X-1.1249 Y1.2104  
G01 X-1.1204 Y1.2149  
G01 X-1.1152 Y1.2184  
G01 X-1.1093 Y1.2208  
G01 X-1.1032 Y1.2220  
G01 X-1.0968 Y1.2220  
G01 X-1.0907 Y1.2208  
G01 X-1.0848 Y1.2184  
G01 X-1.0796 Y1.2149  
G01 X-1.0751 Y1.2104  
G01 X-1.0742 Y1.2090  
G01 X-1.0506 Y1.2090  
G01 X-0.9035 Y1.2188  
G01 X-0.8125 Y1.2468  
G01 X-0.8119 Y1.2501  
G01 X-0.8098 Y1.2565  
G01 X-0.8068 Y1.2625  
G01 X-0.8028 Y1.2680  
G01 X-0.7980 Y1.2728  
G01 X-0.7925 Y1.2768  
G01 X-0.7865 Y1.2798  
G01 X-0.7801 Y1.2819  
G01 X-0.7734 Y1.2830  
G01 X-0.7666 Y1.2830  
G01 X-0.7599 Y1.2819  
G01 X-0.7535 Y1.2798  
G01 X-0.7475 Y1.2768  
G01 X-0.7420 Y1.2728  
G01 X-0.7372 Y1.2680  
G01 X-0.7332 Y1.2625  
G01 X-0.7302 Y1.2565  
G01 X-0.7281 Y1.2501  
G01 X-0.7270 Y1.2434  
G01 X-0.7270 Y1.2366  
G01 X-0.7281 Y1.2299  
G01 X-0.7302 Y1.2235  
G01 X-0.7332 Y1.2175  
G01 X-0.7372 Y1.2120  
G01 X-0.7420 Y1.2072  
G01 X-0.7475 Y1.2032  
G01 X-0.7535 Y1.2002  
G01 X-0.7599 Y1.1981  
G01 X-0.7666 Y1.1970  
G01 X-0.7734 Y1.1970  
G01 X-0.7801 Y1.1981  
G01 X-0.7865 Y1.2002  
G01 X-0.7925 Y1.2032  
G01 X-0.7980 Y1.2072  
G01 X-0.8013 Y1.2105  
G01 X-0.8643 Y1.1911  
G01 X-0.8020 Y1.1289  
G01 X-0.8006 Y1.1276  
G01 X-0.8002 Y1.1271  
G01 X-0.7998 Y1.1267  
G01 X-0.7989 Y1.1250  
G01 X-0.7651 Y1.0744  
G01 X-0.6382 Y1.0791  
G01 X-0.6333 Y1.0780  
G01 X-0.6289 Y1.0756  
G01 X-0.6252 Y1.0722  
G01 X-0.6227 Y1.0681  
G01 X-0.6225 Y1.0680  
G01 X-0.4775 Y1.0680  
G01 X-0.4480 Y1.0975  
G01 X-0.4480 Y1.1925  
G01 X-0.4744 Y1.2189  
G01 X-0.4768 Y1.2231  
G01 X-0.4780 Y1.2276  
G01 X-0.4780 Y1.3535  
G01 X-0.4781 Y1.3537  
G01 X-0.4791 Y1.3586  
G01 X-0.4788 Y1.3636  
G01 X-0.4772 Y1.3684  
G01 X-0.4745 Y1.3726  
G01 X-0.4707 Y1.3759  
G01 X-0.3430 Y1.4397  
G01 X-0.3430 Y1.4578  
G01 X-0.3178 Y1.4830  
G01 X-0.2822 Y1.4830  
G01 X-0.2582 Y1.4590  
G01 X-0.2418 Y1.4590  
G01 X-0.2178 Y1.4830  
G01 X-0.1822 Y1.4830  
G01 X-0.1570 Y1.4578  
G01 X-0.1570 Y1.4222  
G01 X-0.1822 Y1.3970  
G01 X-0.2178 Y1.3970  
G01 X-0.2418 Y1.4210  
G01 X-0.2582 Y1.4210  
G01 X-0.2822 Y1.3970  
G01 X-0.3178 Y1.3970  
G01 X-0.3264 Y1.4056  
G01 X-0.4420 Y1.3478  
G01 X-0.4420 Y1.2375  
G01 X-0.4189 Y1.2144  
G01 X-0.4156 Y1.2111  
G01 X-0.4132 Y1.2069  
G01 X-0.4120 Y1.2024  
G01 X-0.4120 Y1.0876  
G01 X-0.4132 Y1.0831  
G01 X-0.4156 Y1.0789  
G01 X-0.4556 Y1.0389  
G01 X-0.4589 Y1.0356  
G01 X-0.4631 Y1.0332  
G01 X-0.4676 Y1.0320  
G01 X-0.6324 Y1.0320  
G01 X-0.6369 Y1.0332  
G01 X-0.6411 Y1.0356  
G01 X-0.6462 Y1.0408  
G01 X-0.7740 Y1.0360  
G00 Z0.0500  
G00 X-0.7380 Y1.1072  
G01 Z-0.0040 F10    
G01 X-0.7428 Y1.1120  F20    
G01 X-0.7468 Y1.1175  
G01 X-0.7498 Y1.1235  
G01 X-0.7519 Y1.1299  
G01 X-0.7530 Y1.1366  
G01 X-0.7530 Y1.1434  
G01 X-0.7519 Y1.1501  
G01 X-0.7498 Y1.1565  
G01 X-0.7468 Y1.1625  
G01 X-0.7428 Y1.1680  
G01 X-0.7380 Y1.1728  
G01 X-0.7325 Y1.1768  
G01 X-0.7265 Y1.1798  
G01 X-0.7201 Y1.1819  
G01 X-0.7134 Y1.1830  
G01 X-0.7066 Y1.1830  
G01 X-0.7034 Y1.1825  
G01 X-0.6828 Y1.2120  
G01 X-0.6868 Y1.2175  
G01 X-0.6898 Y1.2235  
G01 X-0.6919 Y1.2299  
G01 X-0.6930 Y1.2366  
G01 X-0.6930 Y1.2434  
G01 X-0.6919 Y1.2501  
G01 X-0.6898 Y1.2565  
G01 X-0.6883 Y1.2595  
G01 X-0.8326 Y1.3960  
G01 X-0.9113 Y1.3960  
G01 X-0.9568 Y1.2595  
G01 X-0.9573 Y1.2577  
G01 X-0.9576 Y1.2572  
G01 X-0.9578 Y1.2566  
G01 X-0.9588 Y1.2550  
G01 X-0.9598 Y1.2533  
G01 X-0.9602 Y1.2529  
G01 X-0.9605 Y1.2524  
G01 X-0.9620 Y1.2512  
G01 X-0.9633 Y1.2498  
G01 X-0.9638 Y1.2495  
G01 X-0.9643 Y1.2491  
G01 X-0.9660 Y1.2483  
G01 X-0.9677 Y1.2473  
G01 X-0.9682 Y1.2471  
G01 X-0.9687 Y1.2469  
G01 X-0.9706 Y1.2465  
G01 X-0.9725 Y1.2460  
G01 X-0.9731 Y1.2460  
G01 X-0.9736 Y1.2459  
G01 X-0.9756 Y1.2460  
G01 X-1.4936 Y1.2460  
G01 X-1.4946 Y1.2458  
G01 X-1.4961 Y1.2460  
G01 X-1.4975 Y1.2460  
G01 X-1.4985 Y1.2463  
G01 X-1.4996 Y1.2464  
G01 X-1.5009 Y1.2469  
G01 X-1.5023 Y1.2473  
G01 X-1.5033 Y1.2478  
G01 X-1.5042 Y1.2482  
G01 X-1.5054 Y1.2491  
G01 X-1.5067 Y1.2498  
G01 X-1.5074 Y1.2505  
G01 X-1.5083 Y1.2512  
G01 X-1.5092 Y1.2523  
G01 X-1.5102 Y1.2533  
G01 X-1.5107 Y1.2543  
G01 X-1.5492 Y1.3023  
G01 X-1.5502 Y1.3033  
G01 X-1.5507 Y1.3043  
G01 X-1.5514 Y1.3051  
G01 X-1.5520 Y1.3064  
G01 X-1.5527 Y1.3077  
G01 X-1.5530 Y1.3087  
G01 X-1.5534 Y1.3097  
G01 X-1.5536 Y1.3111  
G01 X-1.5540 Y1.3125  
G01 X-1.5540 Y1.3136  
G01 X-1.5542 Y1.3146  
G01 X-1.5540 Y1.3161  
G01 X-1.5540 Y1.3642  
G01 X-1.5541 Y1.3659  
G01 X-1.5540 Y1.3667  
G01 X-1.5540 Y1.3675  
G01 X-1.5536 Y1.3692  
G01 X-1.5533 Y1.3708  
G01 X-1.5529 Y1.3716  
G01 X-1.5527 Y1.3723  
G01 X-1.5518 Y1.3738  
G01 X-1.5511 Y1.3754  
G01 X-1.5506 Y1.3760  
G01 X-1.5502 Y1.3767  
G01 X-1.5490 Y1.3779  
G01 X-1.4963 Y1.4402  
G01 X-1.4883 Y1.4581  
G01 X-1.4920 Y1.4617  
G01 X-1.4920 Y1.4883  
G01 X-1.4733 Y1.5070  
G01 X-1.4467 Y1.5070  
G01 X-1.4280 Y1.4883  
G01 X-1.4280 Y1.4617  
G01 X-1.4467 Y1.4430  
G01 X-1.4534 Y1.4430  
G01 X-1.4617 Y1.4244  
G01 X-1.4617 Y1.4242  
G01 X-1.4627 Y1.4221  
G01 X-1.4637 Y1.4200  
G01 X-1.4638 Y1.4198  
G01 X-1.4639 Y1.4196  
G01 X-1.4654 Y1.4179  
G01 X-1.4668 Y1.4161  
G01 X-1.4670 Y1.4160  
G01 X-1.5160 Y1.3580  
G01 X-1.5160 Y1.3217  
G01 X-1.4859 Y1.2840  
G01 X-0.9887 Y1.2840  
G01 X-0.9432 Y1.4205  
G01 X-0.9427 Y1.4223  
G01 X-0.9424 Y1.4228  
G01 X-0.9422 Y1.4234  
G01 X-0.9412 Y1.4250  
G01 X-0.9402 Y1.4267  
G01 X-0.9398 Y1.4271  
G01 X-0.9395 Y1.4276  
G01 X-0.9380 Y1.4288  
G01 X-0.9367 Y1.4302  
G01 X-0.9362 Y1.4305  
G01 X-0.9357 Y1.4309  
G01 X-0.9340 Y1.4317  
G01 X-0.9323 Y1.4327  
G01 X-0.9318 Y1.4329  
G01 X-0.9313 Y1.4331  
G01 X-0.9294 Y1.4335  
G01 X-0.9275 Y1.4340  
G01 X-0.9269 Y1.4340  
G01 X-0.9264 Y1.4341  
G01 X-0.9244 Y1.4340  
G01 X-0.8253 Y1.4340  
G01 X-0.8230 Y1.4341  
G01 X-0.8228 Y1.4340  
G01 X-0.8225 Y1.4340  
G01 X-0.8203 Y1.4334  
G01 X-0.8182 Y1.4329  
G01 X-0.8179 Y1.4328  
G01 X-0.8177 Y1.4327  
G01 X-0.8157 Y1.4316  
G01 X-0.8138 Y1.4305  
G01 X-0.8136 Y1.4303  
G01 X-0.8133 Y1.4302  
G01 X-0.8118 Y1.4286  
G01 X-0.6572 Y1.2824  
G01 X-0.6534 Y1.2830  
G01 X-0.6466 Y1.2830  
G01 X-0.6399 Y1.2819  
G01 X-0.6335 Y1.2798  
G01 X-0.6275 Y1.2768  
G01 X-0.6220 Y1.2728  
G01 X-0.6172 Y1.2680  
G01 X-0.6132 Y1.2625  
G01 X-0.6102 Y1.2565  
G01 X-0.6081 Y1.2501  
G01 X-0.6070 Y1.2434  
G01 X-0.6070 Y1.2366  
G01 X-0.6081 Y1.2299  
G01 X-0.6102 Y1.2235  
G01 X-0.6132 Y1.2175  
G01 X-0.6172 Y1.2120  
G01 X-0.6220 Y1.2072  
G01 X-0.6275 Y1.2032  
G01 X-0.6335 Y1.2002  
G01 X-0.6399 Y1.1981  
G01 X-0.6466 Y1.1970  
G01 X-0.6469 Y1.1970  
G01 X-0.6723 Y1.1607  
G01 X-0.6702 Y1.1565  
G01 X-0.6681 Y1.1501  
G01 X-0.6670 Y1.1434  
G01 X-0.6670 Y1.1366  
G01 X-0.6681 Y1.1299  
G01 X-0.6702 Y1.1235  
G01 X-0.6732 Y1.1175  
G01 X-0.6772 Y1.1120  
G01 X-0.6820 Y1.1072  
G01 X-0.6875 Y1.1032  
G01 X-0.6935 Y1.1002  
G01 X-0.6999 Y1.0981  
G01 X-0.7066 Y1.0970  
G01 X-0.7134 Y1.0970  
G01 X-0.7201 Y1.0981  
G01 X-0.7265 Y1.1002  
G01 X-0.7325 Y1.1032  
G01 X-0.7380 Y1.1072  
G00 Z0.0500  
G00 X-0.5480 Y1.1072  
G01 Z-0.0040 F10    
G01 X-0.5528 Y1.1120  F20    
G01 X-0.5568 Y1.1175  
G01 X-0.5598 Y1.1235  
G01 X-0.5619 Y1.1299  
G01 X-0.5630 Y1.1366  
G01 X-0.5630 Y1.1434  
G01 X-0.5619 Y1.1501  
G01 X-0.5598 Y1.1565  
G01 X-0.5568 Y1.1625  
G01 X-0.5528 Y1.1680  
G01 X-0.5480 Y1.1728  
G01 X-0.5425 Y1.1768  
G01 X-0.5380 Y1.1791  
G01 X-0.5380 Y1.2625  
G01 X-0.7844 Y1.5089  
G01 X-0.7868 Y1.5131  
G01 X-0.7880 Y1.5176  
G01 X-0.7880 Y1.5965  
G01 X-0.8967 Y1.4879  
G01 X-0.8976 Y1.4867  
G01 X-0.8983 Y1.4862  
G01 X-0.8989 Y1.4856  
G01 X-0.9002 Y1.4848  
G01 X-0.9015 Y1.4840  
G01 X-0.9023 Y1.4837  
G01 X-0.9031 Y1.4832  
G01 X-0.9045 Y1.4828  
G01 X-0.9059 Y1.4823  
G01 X-0.9068 Y1.4822  
G01 X-0.9076 Y1.4820  
G01 X-0.9091 Y1.4820  
G01 X-0.9106 Y1.4819  
G01 X-0.9115 Y1.4820  
G01 X-0.9124 Y1.4820  
G01 X-0.9138 Y1.4824  
G01 X-0.9153 Y1.4826  
G01 X-0.9161 Y1.4830  
G01 X-0.9169 Y1.4832  
G01 X-0.9182 Y1.4840  
G01 X-1.0025 Y1.5223  
G01 X-1.0067 Y1.5180  
G01 X-1.0333 Y1.5180  
G01 X-1.0520 Y1.5367  
G01 X-1.0520 Y1.5633  
G01 X-1.0333 Y1.5820  
G01 X-1.0067 Y1.5820  
G01 X-0.9880 Y1.5633  
G01 X-0.9880 Y1.5552  
G01 X-0.9139 Y1.5215  
G01 X-0.8104 Y1.6251  
G01 X-0.8119 Y1.6299  
G01 X-0.8130 Y1.6366  
G01 X-0.8130 Y1.6434  
G01 X-0.8119 Y1.6501  
G01 X-0.8098 Y1.6565  
G01 X-0.8068 Y1.6625  
G01 X-0.8028 Y1.6680  
G01 X-0.7980 Y1.6728  
G01 X-0.7925 Y1.6768  
G01 X-0.7865 Y1.6798  
G01 X-0.7801 Y1.6819  
G01 X-0.7734 Y1.6830  
G01 X-0.7666 Y1.6830  
G01 X-0.7599 Y1.6819  
G01 X-0.7535 Y1.6798  
G01 X-0.7475 Y1.6768  
G01 X-0.7420 Y1.6728  
G01 X-0.7372 Y1.6680  
G01 X-0.7332 Y1.6625  
G01 X-0.7302 Y1.6565  
G01 X-0.7281 Y1.6501  
G01 X-0.7270 Y1.6434  
G01 X-0.7270 Y1.6366  
G01 X-0.7281 Y1.6299  
G01 X-0.7302 Y1.6235  
G01 X-0.7332 Y1.6175  
G01 X-0.7372 Y1.6120  
G01 X-0.7420 Y1.6072  
G01 X-0.7475 Y1.6032  
G01 X-0.7520 Y1.6009  
G01 X-0.7520 Y1.5275  
G01 X-0.5089 Y1.2844  
G01 X-0.5056 Y1.2811  
G01 X-0.5032 Y1.2769  
G01 X-0.5020 Y1.2724  
G01 X-0.5020 Y1.1791  
G01 X-0.4975 Y1.1768  
G01 X-0.4920 Y1.1728  
G01 X-0.4872 Y1.1680  
G01 X-0.4832 Y1.1625  
G01 X-0.4802 Y1.1565  
G01 X-0.4781 Y1.1501  
G01 X-0.4770 Y1.1434  
G01 X-0.4770 Y1.1366  
G01 X-0.4781 Y1.1299  
G01 X-0.4802 Y1.1235  
G01 X-0.4832 Y1.1175  
G01 X-0.4872 Y1.1120  
G01 X-0.4920 Y1.1072  
G01 X-0.4975 Y1.1032  
G01 X-0.5035 Y1.1002  
G01 X-0.5099 Y1.0981  
G01 X-0.5166 Y1.0970  
G01 X-0.5234 Y1.0970  
G01 X-0.5301 Y1.0981  
G01 X-0.5365 Y1.1002  
G01 X-0.5425 Y1.1032  
G01 X-0.5480 Y1.1072  
G00 Z0.0500  
G00 X-0.5301 Y1.4215  
G01 Z-0.0040 F10    
G01 X-0.5585 Y1.4499  F20    
G01 X-0.5585 Y1.4901  
G01 X-0.5301 Y1.5185  
G01 X-0.5012 Y1.5185  
G01 X-0.4162 Y1.6499  
G01 X-0.4152 Y1.6517  
G01 X-0.4149 Y1.6520  
G01 X-0.4146 Y1.6524  
G01 X-0.4131 Y1.6538  
G01 X-0.4117 Y1.6552  
G01 X-0.4112 Y1.6554  
G01 X-0.4109 Y1.6558  
G01 X-0.4091 Y1.6567  
G01 X-0.4073 Y1.6577  
G01 X-0.4069 Y1.6578  
G01 X-0.4064 Y1.6581  
G01 X-0.4045 Y1.6585  
G01 X-0.4025 Y1.6590  
G01 X-0.4020 Y1.6590  
G01 X-0.4015 Y1.6591  
G01 X-0.3995 Y1.6590  
G01 X-0.3418 Y1.6590  
G01 X-0.3178 Y1.6830  
G01 X-0.2822 Y1.6830  
G01 X-0.2582 Y1.6590  
G01 X-0.2418 Y1.6590  
G01 X-0.2178 Y1.6830  
G01 X-0.1822 Y1.6830  
G01 X-0.1570 Y1.6578  
G01 X-0.1570 Y1.6222  
G01 X-0.1822 Y1.5970  
G01 X-0.2178 Y1.5970  
G01 X-0.2418 Y1.6210  
G01 X-0.2582 Y1.6210  
G01 X-0.2822 Y1.5970  
G01 X-0.3178 Y1.5970  
G01 X-0.3418 Y1.6210  
G01 X-0.3897 Y1.6210  
G01 X-0.4693 Y1.4979  
G01 X-0.4615 Y1.4901  
G01 X-0.4615 Y1.4499  
G01 X-0.4899 Y1.4215  
G01 X-0.5301 Y1.4215  
G00 Z0.0500  
G00 X-0.5301 Y1.6515  
G01 Z-0.0040 F10    
G01 X-0.5435 Y1.6650  F20    
G01 X-0.6070 Y1.6378  
G01 X-0.6070 Y1.6366  
G01 X-0.6081 Y1.6299  
G01 X-0.6102 Y1.6235  
G01 X-0.6132 Y1.6175  
G01 X-0.6172 Y1.6120  
G01 X-0.6220 Y1.6072  
G01 X-0.6275 Y1.6032  
G01 X-0.6335 Y1.6002  
G01 X-0.6399 Y1.5981  
G01 X-0.6466 Y1.5970  
G01 X-0.6534 Y1.5970  
G01 X-0.6601 Y1.5981  
G01 X-0.6665 Y1.6002  
G01 X-0.6725 Y1.6032  
G01 X-0.6780 Y1.6072  
G01 X-0.6828 Y1.6120  
G01 X-0.6868 Y1.6175  
G01 X-0.6898 Y1.6235  
G01 X-0.6919 Y1.6299  
G01 X-0.6930 Y1.6366  
G01 X-0.6930 Y1.6434  
G01 X-0.6919 Y1.6501  
G01 X-0.6898 Y1.6565  
G01 X-0.6868 Y1.6625  
G01 X-0.6828 Y1.6680  
G01 X-0.6780 Y1.6728  
G01 X-0.6725 Y1.6768  
G01 X-0.6665 Y1.6798  
G01 X-0.6601 Y1.6819  
G01 X-0.6534 Y1.6830  
G01 X-0.6466 Y1.6830  
G01 X-0.6399 Y1.6819  
G01 X-0.6335 Y1.6798  
G01 X-0.6275 Y1.6768  
G01 X-0.6220 Y1.6728  
G01 X-0.5585 Y1.6999  
G01 X-0.5585 Y1.7201  
G01 X-0.5301 Y1.7485  
G01 X-0.4899 Y1.7485  
G01 X-0.4615 Y1.7201  
G01 X-0.4615 Y1.6799  
G01 X-0.4899 Y1.6515  
G01 X-0.5301 Y1.6515  
G00 Z0.0500  
G00 X-0.3430 Y1.7222  
G01 Z-0.0040 F10    
G01 X-0.3430 Y1.7578  F20    
G01 X-0.3178 Y1.7830  
G01 X-0.2822 Y1.7830  
G01 X-0.2570 Y1.7578  
G01 X-0.2570 Y1.7222  
G01 X-0.2822 Y1.6970  
G01 X-0.3178 Y1.6970  
G01 X-0.3430 Y1.7222  
G00 Z0.0500  
G00 X-0.2430 Y1.7222  
G01 Z-0.0040 F10    
G01 X-0.2430 Y1.7578  F20    
G01 X-0.2178 Y1.7830  
G01 X-0.1822 Y1.7830  
G01 X-0.1570 Y1.7578  
G01 X-0.1570 Y1.7222  
G01 X-0.1822 Y1.6970  
G01 X-0.2178 Y1.6970  
G01 X-0.2430 Y1.7222  
G00 Z0.0500  
G00 X-0.2430 Y1.5578  
G01 Z-0.0040 F10    
G01 X-0.2178 Y1.5830  F20    
G01 X-0.1822 Y1.5830  
G01 X-0.1570 Y1.5578  
G01 X-0.1570 Y1.5222  
G01 X-0.1822 Y1.4970  
G01 X-0.2178 Y1.4970  
G01 X-0.2430 Y1.5222  
G01 X-0.2430 Y1.5578  
G00 Z0.0500  
G00 X-0.2570 Y1.5578  
G01 Z-0.0040 F10    
G01 X-0.2570 Y1.5222  F20    
G01 X-0.2822 Y1.4970  
G01 X-0.3178 Y1.4970  
G01 X-0.3430 Y1.5222  
G01 X-0.3430 Y1.5578  
G01 X-0.3178 Y1.5830  
G01 X-0.2822 Y1.5830  
G01 X-0.2570 Y1.5578  
G00 Z0.0500  
G00 X-1.0567 Y1.5070  
G01 Z-0.0040 F10    
G01 X-1.0380 Y1.4883  F20    
G01 X-1.0380 Y1.4617  
G01 X-1.0510 Y1.4487  
G01 X-1.0510 Y1.3937  
G01 X-1.0467 Y1.3830  
G01 X-1.0466 Y1.3830  
G01 X-1.0399 Y1.3819  
G01 X-1.0335 Y1.3798  
G01 X-1.0275 Y1.3768  
G01 X-1.0220 Y1.3728  
G01 X-1.0172 Y1.3680  
G01 X-1.0132 Y1.3625  
G01 X-1.0102 Y1.3565  
G01 X-1.0081 Y1.3501  
G01 X-1.0070 Y1.3434  
G01 X-1.0070 Y1.3366  
G01 X-1.0081 Y1.3299  
G01 X-1.0102 Y1.3235  
G01 X-1.0132 Y1.3175  
G01 X-1.0172 Y1.3120  
G01 X-1.0220 Y1.3072  
G01 X-1.0275 Y1.3032  
G01 X-1.0335 Y1.3002  
G01 X-1.0399 Y1.2981  
G01 X-1.0466 Y1.2970  
G01 X-1.0534 Y1.2970  
G01 X-1.0601 Y1.2981  
G01 X-1.0665 Y1.3002  
G01 X-1.0725 Y1.3032  
G01 X-1.0780 Y1.3072  
G01 X-1.0828 Y1.3120  
G01 X-1.0868 Y1.3175  
G01 X-1.0898 Y1.3235  
G01 X-1.0919 Y1.3299  
G01 X-1.0930 Y1.3366  
G01 X-1.0930 Y1.3434  
G01 X-1.0919 Y1.3501  
G01 X-1.0898 Y1.3565  
G01 X-1.0868 Y1.3625  
G01 X-1.0828 Y1.3680  
G01 X-1.0820 Y1.3688  
G01 X-1.0871 Y1.3817  
G01 X-1.0877 Y1.3827  
G01 X-1.0881 Y1.3840  
G01 X-1.0886 Y1.3853  
G01 X-1.0887 Y1.3864  
G01 X-1.0890 Y1.3875  
G01 X-1.0890 Y1.3889  
G01 X-1.0892 Y1.3902  
G01 X-1.0890 Y1.3914  
G01 X-1.0890 Y1.4487  
G01 X-1.1020 Y1.4617  
G01 X-1.1020 Y1.4883  
G01 X-1.0833 Y1.5070  
G01 X-1.0567 Y1.5070  
G00 Z0.0500  
G00 X-1.3512 Y1.5123  
G01 Z-0.0040 F10    
G01 X-1.3560 Y1.4591  F20    
G01 X-1.3560 Y1.3852  
G01 X-1.3560 Y1.3828  
G01 X-1.3560 Y1.3827  
G01 X-1.3560 Y1.3825  
G01 X-1.3566 Y1.3802  
G01 X-1.3572 Y1.3780  
G01 X-1.3573 Y1.3778  
G01 X-1.3573 Y1.3777  
G01 X-1.3585 Y1.3756  
G01 X-1.3596 Y1.3736  
G01 X-1.3597 Y1.3735  
G01 X-1.3598 Y1.3733  
G01 X-1.3615 Y1.3717  
G01 X-1.3631 Y1.3700  
G01 X-1.3632 Y1.3699  
G01 X-1.3633 Y1.3698  
G01 X-1.3654 Y1.3686  
G01 X-1.4070 Y1.3436  
G01 X-1.4070 Y1.3434  
G01 X-1.4070 Y1.3366  
G01 X-1.4081 Y1.3299  
G01 X-1.4102 Y1.3235  
G01 X-1.4132 Y1.3175  
G01 X-1.4172 Y1.3120  
G01 X-1.4220 Y1.3072  
G01 X-1.4275 Y1.3032  
G01 X-1.4335 Y1.3002  
G01 X-1.4399 Y1.2981  
G01 X-1.4466 Y1.2970  
G01 X-1.4534 Y1.2970  
G01 X-1.4601 Y1.2981  
G01 X-1.4665 Y1.3002  
G01 X-1.4725 Y1.3032  
G01 X-1.4780 Y1.3072  
G01 X-1.4828 Y1.3120  
G01 X-1.4868 Y1.3175  
G01 X-1.4898 Y1.3235  
G01 X-1.4919 Y1.3299  
G01 X-1.4930 Y1.3366  
G01 X-1.4930 Y1.3434  
G01 X-1.4919 Y1.3501  
G01 X-1.4898 Y1.3565  
G01 X-1.4868 Y1.3625  
G01 X-1.4828 Y1.3680  
G01 X-1.4780 Y1.3728  
G01 X-1.4725 Y1.3768  
G01 X-1.4665 Y1.3798  
G01 X-1.4601 Y1.3819  
G01 X-1.4534 Y1.3830  
G01 X-1.4466 Y1.3830  
G01 X-1.4399 Y1.3819  
G01 X-1.4335 Y1.3798  
G01 X-1.4275 Y1.3768  
G01 X-1.4266 Y1.3762  
G01 X-1.3940 Y1.3958  
G01 X-1.3940 Y1.4584  
G01 X-1.3941 Y1.4592  
G01 X-1.3940 Y1.4609  
G01 X-1.3940 Y1.4625  
G01 X-1.3938 Y1.4633  
G01 X-1.3898 Y1.5071  
G01 X-1.4023 Y1.5180  
G01 X-1.4233 Y1.5180  
G01 X-1.4420 Y1.5367  
G01 X-1.4420 Y1.5584  
G01 X-1.4738 Y1.5960  
G01 X-1.5662 Y1.5960  
G01 X-1.6707 Y1.4733  
G01 X-1.6624 Y1.2393  
G01 X-1.6575 Y1.2368  
G01 X-1.6520 Y1.2328  
G01 X-1.6472 Y1.2280  
G01 X-1.6432 Y1.2225  
G01 X-1.6402 Y1.2165  
G01 X-1.6381 Y1.2101  
G01 X-1.6370 Y1.2034  
G01 X-1.6370 Y1.1966  
G01 X-1.6381 Y1.1899  
G01 X-1.6402 Y1.1835  
G01 X-1.6432 Y1.1775  
G01 X-1.6472 Y1.1720  
G01 X-1.6520 Y1.1672  
G01 X-1.6575 Y1.1632  
G01 X-1.6635 Y1.1602  
G01 X-1.6699 Y1.1581  
G01 X-1.6766 Y1.1570  
G01 X-1.6834 Y1.1570  
G01 X-1.6901 Y1.1581  
G01 X-1.6965 Y1.1602  
G01 X-1.7025 Y1.1632  
G01 X-1.7080 Y1.1672  
G01 X-1.7128 Y1.1720  
G01 X-1.7168 Y1.1775  
G01 X-1.7198 Y1.1835  
G01 X-1.7219 Y1.1899  
G01 X-1.7230 Y1.1966  
G01 X-1.7230 Y1.2034  
G01 X-1.7219 Y1.2101  
G01 X-1.7198 Y1.2165  
G01 X-1.7168 Y1.2225  
G01 X-1.7128 Y1.2280  
G01 X-1.7080 Y1.2328  
G01 X-1.7025 Y1.2368  
G01 X-1.7004 Y1.2379  
G01 X-1.7090 Y1.4789  
G01 X-1.7091 Y1.4810  
G01 X-1.7091 Y1.4814  
G01 X-1.7091 Y1.4818  
G01 X-1.7086 Y1.4839  
G01 X-1.7082 Y1.4859  
G01 X-1.7081 Y1.4863  
G01 X-1.7080 Y1.4867  
G01 X-1.7070 Y1.4885  
G01 X-1.7061 Y1.4904  
G01 X-1.7058 Y1.4907  
G01 X-1.7056 Y1.4911  
G01 X-1.7042 Y1.4926  
G01 X-1.5906 Y1.6260  
G01 X-1.5902 Y1.6267  
G01 X-1.5890 Y1.6279  
G01 X-1.5878 Y1.6292  
G01 X-1.5872 Y1.6297  
G01 X-1.5867 Y1.6302  
G01 X-1.5852 Y1.6311  
G01 X-1.5837 Y1.6321  
G01 X-1.5830 Y1.6323  
G01 X-1.5823 Y1.6327  
G01 X-1.5807 Y1.6332  
G01 X-1.5790 Y1.6337  
G01 X-1.5782 Y1.6338  
G01 X-1.5775 Y1.6340  
G01 X-1.5758 Y1.6340  
G01 X-1.5740 Y1.6341  
G01 X-1.5733 Y1.6340  
G01 X-1.4667 Y1.6340  
G01 X-1.4659 Y1.6341  
G01 X-1.4642 Y1.6340  
G01 X-1.4625 Y1.6340  
G01 X-1.4617 Y1.6338  
G01 X-1.4609 Y1.6337  
G01 X-1.4593 Y1.6331  
G01 X-1.4577 Y1.6327  
G01 X-1.4570 Y1.6323  
G01 X-1.4562 Y1.6320  
G01 X-1.4548 Y1.6311  
G01 X-1.4533 Y1.6302  
G01 X-1.4528 Y1.6296  
G01 X-1.4521 Y1.6292  
G01 X-1.4510 Y1.6279  
G01 X-1.4498 Y1.6267  
G01 X-1.4494 Y1.6260  
G01 X-1.4122 Y1.5820  
G01 X-1.3967 Y1.5820  
G01 X-1.3780 Y1.5633  
G01 X-1.3780 Y1.5472  
G01 X-1.3582 Y1.5300  
G01 X-1.3570 Y1.5291  
G01 X-1.3564 Y1.5283  
G01 X-1.3556 Y1.5277  
G01 X-1.3548 Y1.5264  
G01 X-1.3538 Y1.5252  
G01 X-1.3534 Y1.5243  
G01 X-1.3528 Y1.5235  
G01 X-1.3523 Y1.5221  
G01 X-1.3517 Y1.5207  
G01 X-1.3515 Y1.5197  
G01 X-1.3512 Y1.5188  
G01 X-1.3511 Y1.5173  
G01 X-1.3509 Y1.5158  
G01 X-1.3509 Y1.5148  
G01 X-1.3509 Y1.5138  
G01 X-1.3512 Y1.5123  
G00 Z0.0500  
G00 X-1.3249 Y1.2104  
G01 Z-0.0040 F10    
G01 X-1.3204 Y1.2149  F20    
G01 X-1.3152 Y1.2184  
G01 X-1.3093 Y1.2208  
G01 X-1.3032 Y1.2220  
G01 X-1.2968 Y1.2220  
G01 X-1.2907 Y1.2208  
G01 X-1.2848 Y1.2184  
G01 X-1.2796 Y1.2149  
G01 X-1.2751 Y1.2104  
G01 X-1.2742 Y1.2090  
G01 X-1.2258 Y1.2090  
G01 X-1.2249 Y1.2104  
G01 X-1.2204 Y1.2149  
G01 X-1.2152 Y1.2184  
G01 X-1.2093 Y1.2208  
G01 X-1.2032 Y1.2220  
G01 X-1.1968 Y1.2220  
G01 X-1.1907 Y1.2208  
G01 X-1.1848 Y1.2184  
G01 X-1.1796 Y1.2149  
G01 X-1.1751 Y1.2104  
G01 X-1.1716 Y1.2052  
G01 X-1.1692 Y1.1993  
G01 X-1.1680 Y1.1932  
G01 X-1.1680 Y1.1868  
G01 X-1.1692 Y1.1807  
G01 X-1.1716 Y1.1748  
G01 X-1.1751 Y1.1696  
G01 X-1.1796 Y1.1651  
G01 X-1.1848 Y1.1616  
G01 X-1.1907 Y1.1592  
G01 X-1.1968 Y1.1580  
G01 X-1.2032 Y1.1580  
G01 X-1.2093 Y1.1592  
G01 X-1.2152 Y1.1616  
G01 X-1.2204 Y1.1651  
G01 X-1.2249 Y1.1696  
G01 X-1.2258 Y1.1710  
G01 X-1.2742 Y1.1710  
G01 X-1.2751 Y1.1696  
G01 X-1.2796 Y1.1651  
G01 X-1.2848 Y1.1616  
G01 X-1.2907 Y1.1592  
G01 X-1.2968 Y1.1580  
G01 X-1.3032 Y1.1580  
G01 X-1.3093 Y1.1592  
G01 X-1.3152 Y1.1616  
G01 X-1.3204 Y1.1651  
G01 X-1.3249 Y1.1696  
G01 X-1.3284 Y1.1748  
G01 X-1.3308 Y1.1807  
G01 X-1.3320 Y1.1868  
G01 X-1.3320 Y1.1932  
G01 X-1.3308 Y1.1993  
G01 X-1.3284 Y1.2052  
G01 X-1.3249 Y1.2104  
G00 Z0.0500  
G00 X-1.2249 Y0.9104  
G01 Z-0.0040 F10    
G01 X-1.2204 Y0.9149  F20    
G01 X-1.2152 Y0.9184  
G01 X-1.2093 Y0.9208  
G01 X-1.2032 Y0.9220  
G01 X-1.1968 Y0.9220  
G01 X-1.1907 Y0.9208  
G01 X-1.1848 Y0.9184  
G01 X-1.1796 Y0.9149  
G01 X-1.1751 Y0.9104  
G01 X-1.1742 Y0.9090  
G01 X-1.1258 Y0.9090  
G01 X-1.1249 Y0.9104  
G01 X-1.1204 Y0.9149  
G01 X-1.1152 Y0.9184  
G01 X-1.1093 Y0.9208  
G01 X-1.1032 Y0.9220  
G01 X-1.0968 Y0.9220  
G01 X-1.0907 Y0.9208  
G01 X-1.0848 Y0.9184  
G01 X-1.0796 Y0.9149  
G01 X-1.0751 Y0.9104  
G01 X-1.0716 Y0.9052  
G01 X-1.0692 Y0.8993  
G01 X-1.0680 Y0.8932  
G01 X-1.0680 Y0.8868  
G01 X-1.0692 Y0.8807  
G01 X-1.0716 Y0.8748  
G01 X-1.0751 Y0.8696  
G01 X-1.0796 Y0.8651  
G01 X-1.0848 Y0.8616  
G01 X-1.0907 Y0.8592  
G01 X-1.0968 Y0.8580  
G01 X-1.1032 Y0.8580  
G01 X-1.1093 Y0.8592  
G01 X-1.1152 Y0.8616  
G01 X-1.1204 Y0.8651  
G01 X-1.1249 Y0.8696  
G01 X-1.1258 Y0.8710  
G01 X-1.1693 Y0.8710  
G01 X-1.1430 Y0.8185  
G01 X-1.1199 Y0.8185  
G01 X-1.0915 Y0.7901  
G01 X-1.0915 Y0.7499  
G01 X-1.1199 Y0.7215  
G01 X-1.1601 Y0.7215  
G01 X-1.1885 Y0.7499  
G01 X-1.1885 Y0.7901  
G01 X-1.1770 Y0.8016  
G01 X-1.2055 Y0.8585  
G01 X-1.2093 Y0.8592  
G01 X-1.2152 Y0.8616  
G01 X-1.2204 Y0.8651  
G01 X-1.2249 Y0.8696  
G01 X-1.2284 Y0.8748  
G01 X-1.2308 Y0.8807  
G01 X-1.2320 Y0.8868  
G01 X-1.2320 Y0.8932  
G01 X-1.2308 Y0.8993  
G01 X-1.2284 Y0.9052  
G01 X-1.2249 Y0.9104  
G00 Z0.0500  
G00 X-0.1650 Y0.0874  
G01 Z-0.0040 F10    
G01 X-0.1706 Y0.0819  F20    
G01 X-0.1769 Y0.0772  
G01 X-0.1840 Y0.0737  
G01 X-0.1914 Y0.0712  
G01 X-0.1992 Y0.0700  
G01 X-0.2071 Y0.0700  
G01 X-0.2149 Y0.0712  
G01 X-0.2223 Y0.0737  
G01 X-0.2294 Y0.0772  
G01 X-0.2357 Y0.0819  
G01 X-0.2413 Y0.0874  
G01 X-0.2459 Y0.0938  
G01 X-0.2491 Y0.1000  
G01 X-0.3541 Y0.1000  
G01 X-0.3572 Y0.0938  
G01 X-0.3619 Y0.0874  
G01 X-0.3674 Y0.0819  
G01 X-0.3738 Y0.0772  
G01 X-0.3808 Y0.0737  
G01 X-0.3883 Y0.0712  
G01 X-0.3961 Y0.0700  
G01 X-0.4039 Y0.0700  
G01 X-0.4117 Y0.0712  
G01 X-0.4192 Y0.0737  
G01 X-0.4262 Y0.0772  
G01 X-0.4326 Y0.0819  
G01 X-0.4381 Y0.0874  
G01 X-0.4392 Y0.0889  
G01 X-0.4655 Y0.0818  
G01 X-0.5264 Y0.0303  
G01 X-0.5277 Y0.0290  
G01 X-0.5284 Y0.0286  
G01 X-0.5291 Y0.0280  
G01 X-0.5307 Y0.0273  
G01 X-0.5323 Y0.0264  
G01 X-0.5331 Y0.0261  
G01 X-0.5339 Y0.0258  
G01 X-0.5356 Y0.0255  
G01 X-0.5374 Y0.0250  
G01 X-0.5382 Y0.0250  
G01 X-0.5390 Y0.0249  
G01 X-0.5408 Y0.0250  
G01 X-0.6388 Y0.0250  
G01 X-0.6401 Y0.0248  
G01 X-0.6414 Y0.0250  
G01 X-0.6426 Y0.0250  
G01 X-0.6440 Y0.0254  
G01 X-0.6453 Y0.0255  
G01 X-0.6465 Y0.0260  
G01 X-0.6477 Y0.0264  
G01 X-0.6489 Y0.0271  
G01 X-0.6502 Y0.0276  
G01 X-0.6512 Y0.0284  
G01 X-0.6523 Y0.0290  
G01 X-0.6533 Y0.0300  
G01 X-0.6962 Y0.0634  
G01 X-0.6973 Y0.0640  
G01 X-0.6983 Y0.0650  
G01 X-0.6994 Y0.0658  
G01 X-0.7001 Y0.0668  
G01 X-0.7010 Y0.0677  
G01 X-0.7017 Y0.0689  
G01 X-0.7025 Y0.0700  
G01 X-0.7030 Y0.0712  
G01 X-0.7036 Y0.0723  
G01 X-0.7040 Y0.0736  
G01 X-0.7045 Y0.0749  
G01 X-0.7047 Y0.0762  
G01 X-0.7050 Y0.0774  
G01 X-0.7050 Y0.0788  
G01 X-0.7052 Y0.0801  
G01 X-0.7050 Y0.0814  
G01 X-0.7050 Y0.1776  
G01 X-0.7051 Y0.1779  
G01 X-0.7050 Y0.1803  
G01 X-0.7050 Y0.1826  
G01 X-0.7049 Y0.1829  
G01 X-0.7000 Y0.3653  
G01 X-0.7000 Y0.3676  
G01 X-0.6999 Y0.3679  
G01 X-0.6999 Y0.3682  
G01 X-0.6992 Y0.3704  
G01 X-0.6986 Y0.3727  
G01 X-0.6985 Y0.3730  
G01 X-0.6984 Y0.3732  
G01 X-0.6972 Y0.3752  
G01 X-0.6960 Y0.3773  
G01 X-0.6958 Y0.3775  
G01 X-0.6957 Y0.3777  
G01 X-0.6940 Y0.3793  
G01 X-0.6923 Y0.3810  
G01 X-0.6920 Y0.3811  
G01 X-0.6918 Y0.3813  
G01 X-0.6898 Y0.3825  
G01 X-0.6877 Y0.3836  
G01 X-0.6875 Y0.3837  
G01 X-0.6872 Y0.3838  
G01 X-0.6849 Y0.3844  
G01 X-0.6826 Y0.3850  
G01 X-0.6824 Y0.3850  
G01 X-0.6821 Y0.3851  
G01 X-0.6797 Y0.3850  
G01 X-0.4797 Y0.3850  
G01 X-0.2698 Y0.4900  
G01 X-0.3596 Y0.5797  
G01 X-0.3627 Y0.5777  
G01 X-0.3694 Y0.5749  
G01 X-0.3764 Y0.5735  
G01 X-0.3836 Y0.5735  
G01 X-0.3906 Y0.5749  
G01 X-0.3973 Y0.5777  
G01 X-0.4033 Y0.5816  
G01 X-0.4084 Y0.5867  
G01 X-0.4123 Y0.5927  
G01 X-0.4151 Y0.5994  
G01 X-0.4165 Y0.6064  
G01 X-0.4165 Y0.6136  
G01 X-0.4151 Y0.6206  
G01 X-0.4123 Y0.6273  
G01 X-0.4084 Y0.6333  
G01 X-0.4033 Y0.6384  
G01 X-0.3973 Y0.6423  
G01 X-0.3906 Y0.6451  
G01 X-0.3836 Y0.6465  
G01 X-0.3764 Y0.6465  
G01 X-0.3694 Y0.6451  
G01 X-0.3627 Y0.6423  
G01 X-0.3567 Y0.6384  
G01 X-0.3516 Y0.6333  
G01 X-0.3477 Y0.6273  
G01 X-0.3449 Y0.6206  
G01 X-0.3444 Y0.6183  
G01 X-0.2308 Y0.5047  
G01 X-0.1309 Y0.4714  
G01 X-0.1287 Y0.4736  
G01 X-0.1231 Y0.4776  
G01 X-0.1169 Y0.4808  
G01 X-0.1103 Y0.4829  
G01 X-0.1035 Y0.4840  
G01 X-0.0965 Y0.4840  
G01 X-0.0897 Y0.4829  
G01 X-0.0831 Y0.4808  
G01 X-0.0769 Y0.4776  
G01 X-0.0713 Y0.4736  
G01 X-0.0664 Y0.4687  
G01 X-0.0624 Y0.4631  
G01 X-0.0592 Y0.4569  
G01 X-0.0571 Y0.4503  
G01 X-0.0560 Y0.4435  
G01 X-0.0560 Y0.4365  
G01 X-0.0571 Y0.4297  
G01 X-0.0592 Y0.4231  
G01 X-0.0624 Y0.4169  
G01 X-0.0664 Y0.4113  
G01 X-0.0713 Y0.4064  
G01 X-0.0769 Y0.4024  
G01 X-0.0831 Y0.3992  
G01 X-0.0897 Y0.3971  
G01 X-0.0965 Y0.3960  
G01 X-0.1035 Y0.3960  
G01 X-0.1103 Y0.3971  
G01 X-0.1169 Y0.3992  
G01 X-0.1231 Y0.4024  
G01 X-0.1287 Y0.4064  
G01 X-0.1336 Y0.4113  
G01 X-0.1376 Y0.4169  
G01 X-0.1408 Y0.4231  
G01 X-0.1429 Y0.4297  
G01 X-0.1435 Y0.4334  
G01 X-0.2335 Y0.4634  
G01 X-0.4655 Y0.3474  
G01 X-0.4673 Y0.3464  
G01 X-0.4679 Y0.3462  
G01 X-0.4684 Y0.3459  
G01 X-0.4704 Y0.3455  
G01 X-0.4724 Y0.3450  
G01 X-0.4730 Y0.3450  
G01 X-0.4736 Y0.3449  
G01 X-0.4756 Y0.3450  
G01 X-0.6605 Y0.3450  
G01 X-0.6650 Y0.1797  
G01 X-0.6650 Y0.0898  
G01 X-0.6331 Y0.0650  
G01 X-0.5473 Y0.0650  
G01 X-0.4885 Y0.1147  
G01 X-0.4873 Y0.1160  
G01 X-0.4865 Y0.1164  
G01 X-0.4859 Y0.1170  
G01 X-0.4843 Y0.1177  
G01 X-0.4827 Y0.1186  
G01 X-0.4819 Y0.1189  
G01 X-0.4811 Y0.1192  
G01 X-0.4794 Y0.1195  
G01 X-0.4494 Y0.1275  
G01 X-0.4488 Y0.1317  
G01 X-0.4463 Y0.1392  
G01 X-0.4428 Y0.1462  
G01 X-0.4381 Y0.1526  
G01 X-0.4326 Y0.1581  
G01 X-0.4262 Y0.1628  
G01 X-0.4192 Y0.1663  
G01 X-0.4117 Y0.1688  
G01 X-0.4039 Y0.1700  
G01 X-0.3961 Y0.1700  
G01 X-0.3883 Y0.1688  
G01 X-0.3808 Y0.1663  
G01 X-0.3738 Y0.1628  
G01 X-0.3674 Y0.1581  
G01 X-0.3619 Y0.1526  
G01 X-0.3572 Y0.1462  
G01 X-0.3541 Y0.1400  
G01 X-0.2491 Y0.1400  
G01 X-0.2459 Y0.1462  
G01 X-0.2413 Y0.1526  
G01 X-0.2357 Y0.1581  
G01 X-0.2294 Y0.1628  
G01 X-0.2223 Y0.1663  
G01 X-0.2149 Y0.1688  
G01 X-0.2071 Y0.1700  
G01 X-0.1992 Y0.1700  
G01 X-0.1914 Y0.1688  
G01 X-0.1840 Y0.1663  
G01 X-0.1769 Y0.1628  
G01 X-0.1706 Y0.1581  
G01 X-0.1650 Y0.1526  
G01 X-0.1604 Y0.1462  
G01 X-0.1568 Y0.1392  
G01 X-0.1544 Y0.1317  
G01 X-0.1531 Y0.1239  
G01 X-0.1531 Y0.1161  
G01 X-0.1544 Y0.1083  
G01 X-0.1568 Y0.1008  
G01 X-0.1604 Y0.0938  
G01 X-0.1650 Y0.0874  
G00 Z0.0500  
G00 X-0.1514 Y0.2700  
G01 Z-0.0040 F10    
G01 X-0.5608 Y0.2700  F20    
G01 X-0.5624 Y0.2669  
G01 X-0.5664 Y0.2613  
G01 X-0.5713 Y0.2564  
G01 X-0.5769 Y0.2524  
G01 X-0.5779 Y0.2519  
G01 X-0.5779 Y0.1664  
G01 X-0.5777 Y0.1663  
G01 X-0.5706 Y0.1628  
G01 X-0.5643 Y0.1581  
G01 X-0.5587 Y0.1526  
G01 X-0.5541 Y0.1462  
G01 X-0.5505 Y0.1392  
G01 X-0.5481 Y0.1317  
G01 X-0.5469 Y0.1239  
G01 X-0.5469 Y0.1161  
G01 X-0.5481 Y0.1083  
G01 X-0.5505 Y0.1008  
G01 X-0.5541 Y0.0938  
G01 X-0.5587 Y0.0874  
G01 X-0.5643 Y0.0819  
G01 X-0.5706 Y0.0772  
G01 X-0.5777 Y0.0737  
G01 X-0.5851 Y0.0712  
G01 X-0.5929 Y0.0700  
G01 X-0.6008 Y0.0700  
G01 X-0.6086 Y0.0712  
G01 X-0.6160 Y0.0737  
G01 X-0.6231 Y0.0772  
G01 X-0.6294 Y0.0819  
G01 X-0.6350 Y0.0874  
G01 X-0.6396 Y0.0938  
G01 X-0.6432 Y0.1008  
G01 X-0.6456 Y0.1083  
G01 X-0.6469 Y0.1161  
G01 X-0.6469 Y0.1239  
G01 X-0.6456 Y0.1317  
G01 X-0.6432 Y0.1392  
G01 X-0.6396 Y0.1462  
G01 X-0.6350 Y0.1526  
G01 X-0.6294 Y0.1581  
G01 X-0.6231 Y0.1628  
G01 X-0.6160 Y0.1663  
G01 X-0.6159 Y0.1664  
G01 X-0.6159 Y0.2489  
G01 X-0.6169 Y0.2492  
G01 X-0.6231 Y0.2524  
G01 X-0.6287 Y0.2564  
G01 X-0.6336 Y0.2613  
G01 X-0.6376 Y0.2669  
G01 X-0.6408 Y0.2731  
G01 X-0.6429 Y0.2797  
G01 X-0.6440 Y0.2865  
G01 X-0.6440 Y0.2935  
G01 X-0.6429 Y0.3003  
G01 X-0.6408 Y0.3069  
G01 X-0.6376 Y0.3131  
G01 X-0.6336 Y0.3187  
G01 X-0.6287 Y0.3236  
G01 X-0.6231 Y0.3276  
G01 X-0.6169 Y0.3308  
G01 X-0.6103 Y0.3329  
G01 X-0.6035 Y0.3340  
G01 X-0.5965 Y0.3340  
G01 X-0.5897 Y0.3329  
G01 X-0.5831 Y0.3308  
G01 X-0.5769 Y0.3276  
G01 X-0.5713 Y0.3236  
G01 X-0.5664 Y0.3187  
G01 X-0.5624 Y0.3131  
G01 X-0.5608 Y0.3100  
G01 X-0.1567 Y0.3100  
G01 X-0.0450 Y0.3949  
G01 X-0.0450 Y0.5317  
G01 X-0.1593 Y0.6460  
G01 X-0.2875 Y0.6460  
G01 X-0.2923 Y0.6473  
G01 X-0.2967 Y0.6498  
G01 X-0.3204 Y0.6735  
G01 X-0.3609 Y0.6735  
G01 X-0.3635 Y0.6746  
G01 X-0.3654 Y0.6765  
G01 X-0.3665 Y0.6791  
G01 X-0.3665 Y0.7409  
G01 X-0.3654 Y0.7435  
G01 X-0.3635 Y0.7454  
G01 X-0.3609 Y0.7465  
G01 X-0.2991 Y0.7465  
G01 X-0.2965 Y0.7454  
G01 X-0.2946 Y0.7435  
G01 X-0.2935 Y0.7409  
G01 X-0.2935 Y0.7004  
G01 X-0.2771 Y0.6840  
G01 X-0.1590 Y0.6840  
G01 X-0.1590 Y0.7505  
G01 X-0.1605 Y0.7505  
G01 X-0.1895 Y0.7795  
G01 X-0.1895 Y0.8205  
G01 X-0.1605 Y0.8495  
G01 X-0.1195 Y0.8495  
G01 X-0.0905 Y0.8205  
G01 X-0.0905 Y0.7795  
G01 X-0.1195 Y0.7505  
G01 X-0.1210 Y0.7505  
G01 X-0.1210 Y0.6643  
G01 X-0.0127 Y0.5560  
G01 X-0.0090 Y0.5523  
G01 X-0.0064 Y0.5477  
G01 X-0.0050 Y0.5426  
G01 X-0.0050 Y0.3863  
G01 X-0.0048 Y0.3849  
G01 X-0.0050 Y0.3836  
G01 X-0.0050 Y0.3824  
G01 X-0.0054 Y0.3810  
G01 X-0.0055 Y0.3797  
G01 X-0.0060 Y0.3785  
G01 X-0.0064 Y0.3773  
G01 X-0.0070 Y0.3761  
G01 X-0.0076 Y0.3748  
G01 X-0.0084 Y0.3738  
G01 X-0.0090 Y0.3727  
G01 X-0.0100 Y0.3718  
G01 X-0.0108 Y0.3707  
G01 X-0.0118 Y0.3699  
G01 X-0.0127 Y0.3690  
G01 X-0.0139 Y0.3683  
G01 X-0.1368 Y0.2749  
G01 X-0.1377 Y0.2740  
G01 X-0.1389 Y0.2733  
G01 X-0.1400 Y0.2725  
G01 X-0.1412 Y0.2720  
G01 X-0.1423 Y0.2714  
G01 X-0.1436 Y0.2710  
G01 X-0.1449 Y0.2705  
G01 X-0.1461 Y0.2703  
G01 X-0.1474 Y0.2700  
G01 X-0.1487 Y0.2700  
G01 X-0.1501 Y0.2698  
G01 X-0.1514 Y0.2700  
G00 Z0.0500  
G00 X-0.4664 Y0.4113  
G01 Z-0.0040 F10    
G01 X-0.4713 Y0.4064  F20    
G01 X-0.4769 Y0.4024  
G01 X-0.4831 Y0.3992  
G01 X-0.4897 Y0.3971  
G01 X-0.4965 Y0.3960  
G01 X-0.5035 Y0.3960  
G01 X-0.5103 Y0.3971  
G01 X-0.5169 Y0.3992  
G01 X-0.5231 Y0.4024  
G01 X-0.5287 Y0.4064  
G01 X-0.5336 Y0.4113  
G01 X-0.5376 Y0.4169  
G01 X-0.5404 Y0.4224  
G01 X-1.1700 Y0.4600  
G01 X-1.1714 Y0.4599  
G01 X-1.1726 Y0.4601  
G01 X-1.1738 Y0.4602  
G01 X-1.1752 Y0.4606  
G01 X-1.1766 Y0.4609  
G01 X-1.1777 Y0.4615  
G01 X-1.1788 Y0.4619  
G01 X-1.1800 Y0.4626  
G01 X-1.3368 Y0.5410  
G01 X-1.3371 Y0.5411  
G01 X-1.3392 Y0.5422  
G01 X-1.3413 Y0.5433  
G01 X-1.3415 Y0.5435  
G01 X-1.3417 Y0.5436  
G01 X-1.3435 Y0.5452  
G01 X-1.3452 Y0.5468  
G01 X-1.3454 Y0.5470  
G01 X-1.3456 Y0.5472  
G01 X-1.3468 Y0.5492  
G01 X-1.3481 Y0.5512  
G01 X-1.3482 Y0.5514  
G01 X-1.3795 Y0.6015  
G01 X-1.3838 Y0.6015  
G01 X-1.3912 Y0.6030  
G01 X-1.3982 Y0.6059  
G01 X-1.4045 Y0.6101  
G01 X-1.4099 Y0.6155  
G01 X-1.4141 Y0.6218  
G01 X-1.4170 Y0.6288  
G01 X-1.4185 Y0.6362  
G01 X-1.4185 Y0.6438  
G01 X-1.4170 Y0.6512  
G01 X-1.4141 Y0.6582  
G01 X-1.4099 Y0.6645  
G01 X-1.4045 Y0.6699  
G01 X-1.3982 Y0.6741  
G01 X-1.3912 Y0.6770  
G01 X-1.3838 Y0.6785  
G01 X-1.3762 Y0.6785  
G01 X-1.3709 Y0.6774  
G01 X-1.3014 Y0.7468  
G01 X-1.3007 Y0.7484  
G01 X-1.3162 Y0.8611  
G01 X-1.3210 Y0.8644  
G01 X-1.3256 Y0.8690  
G01 X-1.3292 Y0.8744  
G01 X-1.3317 Y0.8804  
G01 X-1.3330 Y0.8867  
G01 X-1.3330 Y0.8933  
G01 X-1.3317 Y0.8996  
G01 X-1.3292 Y0.9056  
G01 X-1.3256 Y0.9110  
G01 X-1.3210 Y0.9156  
G01 X-1.3156 Y0.9192  
G01 X-1.3096 Y0.9217  
G01 X-1.3033 Y0.9230  
G01 X-1.2967 Y0.9230  
G01 X-1.2904 Y0.9217  
G01 X-1.2844 Y0.9192  
G01 X-1.2790 Y0.9156  
G01 X-1.2744 Y0.9110  
G01 X-1.2708 Y0.9056  
G01 X-1.2683 Y0.8996  
G01 X-1.2670 Y0.8933  
G01 X-1.2670 Y0.8867  
G01 X-1.2683 Y0.8804  
G01 X-1.2708 Y0.8744  
G01 X-1.2744 Y0.8690  
G01 X-1.2766 Y0.8667  
G01 X-1.2604 Y0.7496  
G01 X-1.2602 Y0.7488  
G01 X-1.2601 Y0.7470  
G01 X-1.2598 Y0.7451  
G01 X-1.2599 Y0.7443  
G01 X-1.2599 Y0.7436  
G01 X-1.2603 Y0.7417  
G01 X-1.2605 Y0.7399  
G01 X-1.2608 Y0.7392  
G01 X-1.2609 Y0.7384  
G01 X-1.2618 Y0.7367  
G01 X-1.2625 Y0.7350  
G01 X-1.2629 Y0.7344  
G01 X-1.2662 Y0.7279  
G01 X-1.2664 Y0.7273  
G01 X-1.2674 Y0.7255  
G01 X-1.2683 Y0.7237  
G01 X-1.2687 Y0.7232  
G01 X-1.2690 Y0.7227  
G01 X-1.2704 Y0.7213  
G01 X-1.2718 Y0.7198  
G01 X-1.2723 Y0.7194  
G01 X-1.3426 Y0.6491  
G01 X-1.3415 Y0.6438  
G01 X-1.3415 Y0.6362  
G01 X-1.3430 Y0.6288  
G01 X-1.3455 Y0.6226  
G01 X-1.3160 Y0.5754  
G01 X-1.1647 Y0.4997  
G01 X-0.5380 Y0.4623  
G01 X-0.5376 Y0.4631  
G01 X-0.5336 Y0.4687  
G01 X-0.5287 Y0.4736  
G01 X-0.5231 Y0.4776  
G01 X-0.5169 Y0.4808  
G01 X-0.5103 Y0.4829  
G01 X-0.5035 Y0.4840  
G01 X-0.4965 Y0.4840  
G01 X-0.4897 Y0.4829  
G01 X-0.4831 Y0.4808  
G01 X-0.4769 Y0.4776  
G01 X-0.4713 Y0.4736  
G01 X-0.4664 Y0.4687  
G01 X-0.4624 Y0.4631  
G01 X-0.4592 Y0.4569  
G01 X-0.4571 Y0.4503  
G01 X-0.4560 Y0.4435  
G01 X-0.4560 Y0.4365  
G01 X-0.4571 Y0.4297  
G01 X-0.4592 Y0.4231  
G01 X-0.4624 Y0.4169  
G01 X-0.4664 Y0.4113  
G00 Z0.0500  
G00 X-0.4533 Y0.6816  
G01 Z-0.0040 F10    
G01 X-0.4584 Y0.6867  F20    
G01 X-0.4612 Y0.6910  
G01 X-0.5560 Y0.6910  
G01 X-0.5560 Y0.6865  
G01 X-0.5571 Y0.6797  
G01 X-0.5592 Y0.6731  
G01 X-0.5624 Y0.6669  
G01 X-0.5664 Y0.6613  
G01 X-0.5713 Y0.6564  
G01 X-0.5769 Y0.6524  
G01 X-0.5831 Y0.6492  
G01 X-0.5897 Y0.6471  
G01 X-0.5965 Y0.6460  
G01 X-0.6035 Y0.6460  
G01 X-0.6103 Y0.6471  
G01 X-0.6169 Y0.6492  
G01 X-0.6231 Y0.6524  
G01 X-0.6271 Y0.6553  
G01 X-0.7066 Y0.5970  
G01 X-0.7060 Y0.5935  
G01 X-0.7060 Y0.5865  
G01 X-0.7071 Y0.5797  
G01 X-0.7092 Y0.5731  
G01 X-0.7124 Y0.5669  
G01 X-0.7164 Y0.5613  
G01 X-0.7213 Y0.5564  
G01 X-0.7269 Y0.5524  
G01 X-0.7331 Y0.5492  
G01 X-0.7397 Y0.5471  
G01 X-0.7465 Y0.5460  
G01 X-0.7535 Y0.5460  
G01 X-0.7603 Y0.5471  
G01 X-0.7669 Y0.5492  
G01 X-0.7731 Y0.5524  
G01 X-0.7787 Y0.5564  
G01 X-0.7836 Y0.5613  
G01 X-0.7876 Y0.5669  
G01 X-0.7908 Y0.5731  
G01 X-0.7929 Y0.5797  
G01 X-0.7940 Y0.5865  
G01 X-0.7940 Y0.5935  
G01 X-0.7929 Y0.6003  
G01 X-0.7908 Y0.6069  
G01 X-0.7876 Y0.6131  
G01 X-0.7836 Y0.6187  
G01 X-0.7787 Y0.6236  
G01 X-0.7731 Y0.6276  
G01 X-0.7669 Y0.6308  
G01 X-0.7603 Y0.6329  
G01 X-0.7535 Y0.6340  
G01 X-0.7465 Y0.6340  
G01 X-0.7397 Y0.6329  
G01 X-0.7331 Y0.6308  
G01 X-0.7302 Y0.6293  
G01 X-0.6440 Y0.6925  
G01 X-0.6440 Y0.6935  
G01 X-0.6429 Y0.7003  
G01 X-0.6408 Y0.7069  
G01 X-0.6376 Y0.7131  
G01 X-0.6336 Y0.7187  
G01 X-0.6287 Y0.7236  
G01 X-0.6231 Y0.7276  
G01 X-0.6169 Y0.7308  
G01 X-0.6103 Y0.7329  
G01 X-0.6036 Y0.7340  
G01 X-0.5568 Y0.8158  
G01 X-0.5576 Y0.8169  
G01 X-0.5608 Y0.8231  
G01 X-0.5629 Y0.8297  
G01 X-0.5640 Y0.8365  
G01 X-0.5640 Y0.8435  
G01 X-0.5629 Y0.8503  
G01 X-0.5608 Y0.8569  
G01 X-0.5576 Y0.8631  
G01 X-0.5536 Y0.8687  
G01 X-0.5487 Y0.8736  
G01 X-0.5431 Y0.8776  
G01 X-0.5369 Y0.8808  
G01 X-0.5303 Y0.8829  
G01 X-0.5235 Y0.8840  
G01 X-0.5165 Y0.8840  
G01 X-0.5097 Y0.8829  
G01 X-0.5031 Y0.8808  
G01 X-0.4969 Y0.8776  
G01 X-0.4913 Y0.8736  
G01 X-0.4864 Y0.8687  
G01 X-0.4824 Y0.8631  
G01 X-0.4792 Y0.8569  
G01 X-0.4771 Y0.8503  
G01 X-0.4760 Y0.8435  
G01 X-0.4760 Y0.8365  
G01 X-0.4771 Y0.8297  
G01 X-0.4792 Y0.8231  
G01 X-0.4824 Y0.8169  
G01 X-0.4864 Y0.8113  
G01 X-0.4913 Y0.8064  
G01 X-0.4969 Y0.8024  
G01 X-0.5031 Y0.7992  
G01 X-0.5097 Y0.7971  
G01 X-0.5165 Y0.7960  
G01 X-0.5221 Y0.7960  
G01 X-0.5604 Y0.7290  
G01 X-0.4612 Y0.7290  
G01 X-0.4584 Y0.7333  
G01 X-0.4533 Y0.7384  
G01 X-0.4473 Y0.7423  
G01 X-0.4406 Y0.7451  
G01 X-0.4336 Y0.7465  
G01 X-0.4264 Y0.7465  
G01 X-0.4194 Y0.7451  
G01 X-0.4127 Y0.7423  
G01 X-0.4067 Y0.7384  
G01 X-0.4016 Y0.7333  
G01 X-0.3977 Y0.7273  
G01 X-0.3949 Y0.7206  
G01 X-0.3935 Y0.7136  
G01 X-0.3935 Y0.7064  
G01 X-0.3949 Y0.6994  
G01 X-0.3977 Y0.6927  
G01 X-0.4016 Y0.6867  
G01 X-0.4067 Y0.6816  
G01 X-0.4127 Y0.6777  
G01 X-0.4194 Y0.6749  
G01 X-0.4264 Y0.6735  
G01 X-0.4336 Y0.6735  
G01 X-0.4406 Y0.6749  
G01 X-0.4473 Y0.6777  
G01 X-0.4533 Y0.6816  
G00 Z0.0500  
G00 X-0.6764 Y0.8113  
G01 Z-0.0040 F10    
G01 X-0.6813 Y0.8064  F20    
G01 X-0.6869 Y0.8024  
G01 X-0.6931 Y0.7992  
G01 X-0.6997 Y0.7971  
G01 X-0.7065 Y0.7960  
G01 X-0.7135 Y0.7960  
G01 X-0.7203 Y0.7971  
G01 X-0.7269 Y0.7992  
G01 X-0.7331 Y0.8024  
G01 X-0.7387 Y0.8064  
G01 X-0.7436 Y0.8113  
G01 X-0.7476 Y0.8169  
G01 X-0.7508 Y0.8231  
G01 X-0.7529 Y0.8297  
G01 X-0.7540 Y0.8365  
G01 X-0.7540 Y0.8435  
G01 X-0.7529 Y0.8503  
G01 X-0.7508 Y0.8569  
G01 X-0.7476 Y0.8631  
G01 X-0.7436 Y0.8687  
G01 X-0.7390 Y0.8732  
G01 X-0.7388 Y0.8765  
G01 X-0.9105 Y0.7212  
G01 X-0.9112 Y0.7203  
G01 X-0.9116 Y0.7200  
G01 X-0.9120 Y0.7196  
G01 X-0.9128 Y0.7191  
G01 X-0.9135 Y0.7184  
G01 X-0.9146 Y0.7179  
G01 X-0.9155 Y0.7172  
G01 X-0.9160 Y0.7170  
G01 X-1.1062 Y0.5945  
G01 X-1.1060 Y0.5935  
G01 X-1.1060 Y0.5865  
G01 X-1.1071 Y0.5797  
G01 X-1.1092 Y0.5731  
G01 X-1.1124 Y0.5669  
G01 X-1.1164 Y0.5613  
G01 X-1.1213 Y0.5564  
G01 X-1.1269 Y0.5524  
G01 X-1.1331 Y0.5492  
G01 X-1.1397 Y0.5471  
G01 X-1.1465 Y0.5460  
G01 X-1.1535 Y0.5460  
G01 X-1.1603 Y0.5471  
G01 X-1.1669 Y0.5492  
G01 X-1.1731 Y0.5524  
G01 X-1.1787 Y0.5564  
G01 X-1.1836 Y0.5613  
G01 X-1.1876 Y0.5669  
G01 X-1.1908 Y0.5731  
G01 X-1.1929 Y0.5797  
G01 X-1.1940 Y0.5865  
G01 X-1.1940 Y0.5935  
G01 X-1.1929 Y0.6003  
G01 X-1.1908 Y0.6069  
G01 X-1.1876 Y0.6131  
G01 X-1.1836 Y0.6187  
G01 X-1.1787 Y0.6236  
G01 X-1.1731 Y0.6276  
G01 X-1.1669 Y0.6308  
G01 X-1.1603 Y0.6329  
G01 X-1.1535 Y0.6340  
G01 X-1.1465 Y0.6340  
G01 X-1.1397 Y0.6329  
G01 X-1.1331 Y0.6308  
G01 X-1.1278 Y0.6281  
G01 X-0.9461 Y0.7452  
G01 X-0.9672 Y0.9605  
G01 X-0.9830 Y0.9763  
G01 X-0.9830 Y1.0037  
G01 X-0.9637 Y1.0230  
G01 X-0.9363 Y1.0230  
G01 X-0.9170 Y1.0037  
G01 X-0.9170 Y0.9763  
G01 X-0.9275 Y0.9658  
G01 X-0.9090 Y0.7765  
G01 X-0.7302 Y0.9382  
G01 X-0.7300 Y0.9385  
G01 X-0.7286 Y0.9397  
G01 X-0.7273 Y0.9410  
G01 X-0.7268 Y0.9413  
G01 X-0.7265 Y0.9416  
G01 X-0.7262 Y0.9417  
G01 X-0.7260 Y0.9419  
G01 X-0.7243 Y0.9427  
G01 X-0.7227 Y0.9436  
G01 X-0.7222 Y0.9438  
G01 X-0.7218 Y0.9440  
G01 X-0.7215 Y0.9441  
G01 X-0.7213 Y0.9442  
G01 X-0.7194 Y0.9445  
G01 X-0.7176 Y0.9450  
G01 X-0.7171 Y0.9450  
G01 X-0.7166 Y0.9451  
G01 X-0.7164 Y0.9451  
G01 X-0.7161 Y0.9451  
G01 X-0.7142 Y0.9450  
G01 X-0.1848 Y0.9450  
G01 X-0.1250 Y1.0219  
G01 X-0.1250 Y1.0553  
G01 X-0.1795 Y1.0983  
G01 X-0.1818 Y1.0960  
G01 X-0.2182 Y1.0960  
G01 X-0.2422 Y1.1200  
G01 X-0.2578 Y1.1200  
G01 X-0.2818 Y1.0960  
G01 X-0.3182 Y1.0960  
G01 X-0.3440 Y1.1218  
G01 X-0.3440 Y1.1582  
G01 X-0.3182 Y1.1840  
G01 X-0.2818 Y1.1840  
G01 X-0.2578 Y1.1600  
G01 X-0.2422 Y1.1600  
G01 X-0.2200 Y1.1822  
G01 X-0.2200 Y1.1978  
G01 X-0.2422 Y1.2200  
G01 X-0.2578 Y1.2200  
G01 X-0.2818 Y1.1960  
G01 X-0.3182 Y1.1960  
G01 X-0.3440 Y1.2218  
G01 X-0.3440 Y1.2582  
G01 X-0.3182 Y1.2840  
G01 X-0.2818 Y1.2840  
G01 X-0.2578 Y1.2600  
G01 X-0.2422 Y1.2600  
G01 X-0.2200 Y1.2822  
G01 X-0.2200 Y1.2978  
G01 X-0.2422 Y1.3200  
G01 X-0.2578 Y1.3200  
G01 X-0.2818 Y1.2960  
G01 X-0.3182 Y1.2960  
G01 X-0.3440 Y1.3218  
G01 X-0.3440 Y1.3582  
G01 X-0.3182 Y1.3840  
G01 X-0.2818 Y1.3840  
G01 X-0.2578 Y1.3600  
G01 X-0.2422 Y1.3600  
G01 X-0.2182 Y1.3840  
G01 X-0.1818 Y1.3840  
G01 X-0.1680 Y1.3703  
G01 X-0.1350 Y1.3800  
G01 X-0.1350 Y1.7950  
G01 X-0.6666 Y1.7950  
G01 X-1.1128 Y1.6367  
G01 X-1.1044 Y1.5811  
G01 X-1.0870 Y1.5637  
G01 X-1.0870 Y1.5363  
G01 X-1.1063 Y1.5170  
G01 X-1.1337 Y1.5170  
G01 X-1.1530 Y1.5363  
G01 X-1.1530 Y1.5637  
G01 X-1.1437 Y1.5730  
G01 X-1.1522 Y1.6300  
G01 X-1.2595 Y1.6300  
G01 X-1.2616 Y1.6299  
G01 X-1.2621 Y1.6300  
G01 X-1.2626 Y1.6300  
G01 X-1.2647 Y1.6305  
G01 X-1.4271 Y1.6650  
G01 X-1.6010 Y1.6650  
G01 X-1.7350 Y1.5125  
G01 X-1.7350 Y1.1098  
G01 X-1.5640 Y1.1016  
G01 X-1.6421 Y1.2496  
G01 X-1.6430 Y1.2508  
G01 X-1.6433 Y1.2517  
G01 X-1.6437 Y1.2525  
G01 X-1.6438 Y1.2528  
G01 X-1.6439 Y1.2530  
G01 X-1.6442 Y1.2544  
G01 X-1.6447 Y1.2558  
G01 X-1.6448 Y1.2567  
G01 X-1.6450 Y1.2576  
G01 X-1.6450 Y1.2579  
G01 X-1.6451 Y1.2581  
G01 X-1.6450 Y1.2596  
G01 X-1.6549 Y1.3828  
G01 X-1.6552 Y1.3849  
G01 X-1.6551 Y1.3855  
G01 X-1.6551 Y1.3860  
G01 X-1.6548 Y1.3881  
G01 X-1.6545 Y1.3901  
G01 X-1.6543 Y1.3906  
G01 X-1.6542 Y1.3912  
G01 X-1.6533 Y1.3931  
G01 X-1.6525 Y1.3950  
G01 X-1.6522 Y1.3954  
G01 X-1.6519 Y1.3960  
G01 X-1.6506 Y1.3975  
G01 X-1.5430 Y1.5396  
G01 X-1.5430 Y1.5637  
G01 X-1.5237 Y1.5830  
G01 X-1.4963 Y1.5830  
G01 X-1.4770 Y1.5637  
G01 X-1.4770 Y1.5363  
G01 X-1.4963 Y1.5170  
G01 X-1.5099 Y1.5170  
G01 X-1.6145 Y1.3790  
G01 X-1.6059 Y1.2719  
G01 X-1.4856 Y1.2006  
G01 X-1.4283 Y1.2070  
G01 X-1.4256 Y1.2110  
G01 X-1.4210 Y1.2156  
G01 X-1.4156 Y1.2192  
G01 X-1.4096 Y1.2217  
G01 X-1.4033 Y1.2230  
G01 X-1.3967 Y1.2230  
G01 X-1.3904 Y1.2217  
G01 X-1.3844 Y1.2192  
G01 X-1.3790 Y1.2156  
G01 X-1.3744 Y1.2110  
G01 X-1.3708 Y1.2056  
G01 X-1.3683 Y1.1996  
G01 X-1.3670 Y1.1933  
G01 X-1.3670 Y1.1867  
G01 X-1.3683 Y1.1804  
G01 X-1.3708 Y1.1744  
G01 X-1.3744 Y1.1690  
G01 X-1.3790 Y1.1644  
G01 X-1.3844 Y1.1608  
G01 X-1.3904 Y1.1583  
G01 X-1.3967 Y1.1570  
G01 X-1.4033 Y1.1570  
G01 X-1.4096 Y1.1583  
G01 X-1.4156 Y1.1608  
G01 X-1.4210 Y1.1644  
G01 X-1.4239 Y1.1672  
G01 X-1.4864 Y1.1603  
G01 X-1.4876 Y1.1600  
G01 X-1.4890 Y1.1600  
G01 X-1.4904 Y1.1598  
G01 X-1.4916 Y1.1600  
G01 X-1.4929 Y1.1600  
G01 X-1.4942 Y1.1604  
G01 X-1.4956 Y1.1606  
G01 X-1.4967 Y1.1611  
G01 X-1.4979 Y1.1615  
G01 X-1.4991 Y1.1622  
G01 X-1.5004 Y1.1627  
G01 X-1.5014 Y1.1635  
G01 X-1.5742 Y1.2067  
G01 X-1.5248 Y1.1130  
G01 X-1.5163 Y1.1130  
G01 X-1.4970 Y1.0937  
G01 X-1.4970 Y1.0663  
G01 X-1.5163 Y1.0470  
G01 X-1.5437 Y1.0470  
G01 X-1.5580 Y1.0613  
G01 X-1.7350 Y1.0697  
G01 X-1.7350 Y0.7800  
G01 X-1.7064 Y0.7269  
G01 X-1.5060 Y0.6684  
G01 X-1.4959 Y0.6785  
G01 X-1.4641 Y0.6785  
G01 X-1.4415 Y0.6559  
G01 X-1.4415 Y0.6241  
G01 X-1.4641 Y0.6015  
G01 X-1.4959 Y0.6015  
G01 X-1.5185 Y0.6241  
G01 X-1.5185 Y0.6304  
G01 X-1.7231 Y0.6901  
G01 X-1.7257 Y0.6908  
G01 X-1.7281 Y0.6915  
G01 X-1.7283 Y0.6916  
G01 X-1.7305 Y0.6929  
G01 X-1.7326 Y0.6943  
G01 X-1.7327 Y0.6944  
G01 X-1.7345 Y0.6962  
G01 X-1.7363 Y0.6981  
G01 X-1.7364 Y0.6982  
G01 X-1.7376 Y0.7004  
G01 X-1.7388 Y0.7027  
G01 X-1.7725 Y0.7653  
G01 X-1.7736 Y0.7673  
G01 X-1.7737 Y0.7676  
G01 X-1.7739 Y0.7678  
G01 X-1.7744 Y0.7701  
G01 X-1.7750 Y0.7724  
G01 X-1.7750 Y0.7727  
G01 X-1.7751 Y0.7730  
G01 X-1.7750 Y0.7753  
G01 X-1.7750 Y1.0930  
G01 X-1.7751 Y1.0936  
G01 X-1.7750 Y1.0956  
G01 X-1.7750 Y1.5194  
G01 X-1.7751 Y1.5213  
G01 X-1.7750 Y1.5220  
G01 X-1.7750 Y1.5226  
G01 X-1.7745 Y1.5246  
G01 X-1.7741 Y1.5265  
G01 X-1.7738 Y1.5271  
G01 X-1.7736 Y1.5277  
G01 X-1.7726 Y1.5294  
G01 X-1.7718 Y1.5312  
G01 X-1.7713 Y1.5317  
G01 X-1.7710 Y1.5323  
G01 X-1.7696 Y1.5337  
G01 X-1.6263 Y1.6967  
G01 X-1.6260 Y1.6973  
G01 X-1.6246 Y1.6987  
G01 X-1.6233 Y1.7002  
G01 X-1.6227 Y1.7005  
G01 X-1.6223 Y1.7010  
G01 X-1.6206 Y1.7020  
G01 X-1.6189 Y1.7031  
G01 X-1.6183 Y1.7033  
G01 X-1.6177 Y1.7036  
G01 X-1.6158 Y1.7042  
G01 X-1.6139 Y1.7048  
G01 X-1.6133 Y1.7048  
G01 X-1.6126 Y1.7050  
G01 X-1.6106 Y1.7050  
G01 X-1.6087 Y1.7051  
G01 X-1.6080 Y1.7050  
G01 X-1.4255 Y1.7050  
G01 X-1.4234 Y1.7051  
G01 X-1.4229 Y1.7050  
G01 X-1.4224 Y1.7050  
G01 X-1.4203 Y1.7045  
G01 X-1.2579 Y1.6700  
G01 X-1.1384 Y1.6700  
G01 X-0.6784 Y1.8332  
G01 X-0.6777 Y1.8336  
G01 X-0.6759 Y1.8341  
G01 X-0.6742 Y1.8347  
G01 X-0.6734 Y1.8348  
G01 X-0.6726 Y1.8350  
G01 X-0.6708 Y1.8350  
G01 X-0.6690 Y1.8351  
G01 X-0.6682 Y1.8350  
G01 X-0.1124 Y1.8350  
G01 X-0.1073 Y1.8336  
G01 X-0.1027 Y1.8310  
G01 X-0.0990 Y1.8273  
G01 X-0.0964 Y1.8227  
G01 X-0.0950 Y1.8176  
G01 X-0.0950 Y1.3652  
G01 X-0.0949 Y1.3629  
G01 X-0.0950 Y1.3626  
G01 X-0.0950 Y1.3624  
G01 X-0.0956 Y1.3601  
G01 X-0.0962 Y1.3577  
G01 X-0.0963 Y1.3575  
G01 X-0.0964 Y1.3573  
G01 X-0.0976 Y1.3552  
G01 X-0.0987 Y1.3531  
G01 X-0.0989 Y1.3529  
G01 X-0.0990 Y1.3527  
G01 X-0.1007 Y1.3510  
G01 X-0.1023 Y1.3493  
G01 X-0.1025 Y1.3492  
G01 X-0.1027 Y1.3490  
G01 X-0.1048 Y1.3478  
G01 X-0.1068 Y1.3466  
G01 X-0.1071 Y1.3465  
G01 X-0.1073 Y1.3464  
G01 X-0.1096 Y1.3457  
G01 X-0.1560 Y1.3321  
G01 X-0.1560 Y1.3218  
G01 X-0.1800 Y1.2978  
G01 X-0.1800 Y1.2822  
G01 X-0.1560 Y1.2582  
G01 X-0.1560 Y1.2218  
G01 X-0.1800 Y1.1978  
G01 X-0.1800 Y1.1822  
G01 X-0.1560 Y1.1582  
G01 X-0.1560 Y1.1307  
G01 X-0.0937 Y1.0816  
G01 X-0.0927 Y1.0810  
G01 X-0.0917 Y1.0800  
G01 X-0.0905 Y1.0791  
G01 X-0.0898 Y1.0781  
G01 X-0.0890 Y1.0773  
G01 X-0.0883 Y1.0760  
G01 X-0.0874 Y1.0748  
G01 X-0.0870 Y1.0737  
G01 X-0.0864 Y1.0727  
G01 X-0.0860 Y1.0713  
G01 X-0.0854 Y1.0700  
G01 X-0.0853 Y1.0688  
G01 X-0.0850 Y1.0676  
G01 X-0.0850 Y1.0662  
G01 X-0.0848 Y1.0647  
G01 X-0.0850 Y1.0636  
G01 X-0.0850 Y1.0162  
G01 X-0.0848 Y1.0149  
G01 X-0.0850 Y1.0136  
G01 X-0.0850 Y1.0124  
G01 X-0.0854 Y1.0110  
G01 X-0.0855 Y1.0097  
G01 X-0.0860 Y1.0085  
G01 X-0.0864 Y1.0073  
G01 X-0.0871 Y1.0061  
G01 X-0.0876 Y1.0048  
G01 X-0.0884 Y1.0038  
G01 X-0.0890 Y1.0027  
G01 X-0.0900 Y1.0017  
G01 X-0.1584 Y0.9138  
G01 X-0.1590 Y0.9127  
G01 X-0.1600 Y0.9117  
G01 X-0.1608 Y0.9106  
G01 X-0.1618 Y0.9099  
G01 X-0.1627 Y0.9090  
G01 X-0.1639 Y0.9083  
G01 X-0.1650 Y0.9075  
G01 X-0.1662 Y0.9070  
G01 X-0.1673 Y0.9064  
G01 X-0.1686 Y0.9060  
G01 X-0.1699 Y0.9055  
G01 X-0.1712 Y0.9053  
G01 X-0.1724 Y0.9050  
G01 X-0.1738 Y0.9050  
G01 X-0.1751 Y0.9048  
G01 X-0.1764 Y0.9050  
G01 X-0.6965 Y0.9050  
G01 X-0.6982 Y0.8824  
G01 X-0.6931 Y0.8808  
G01 X-0.6869 Y0.8776  
G01 X-0.6813 Y0.8736  
G01 X-0.6764 Y0.8687  
G01 X-0.6724 Y0.8631  
G01 X-0.6692 Y0.8569  
G01 X-0.6671 Y0.8503  
G01 X-0.6660 Y0.8435  
G01 X-0.6660 Y0.8365  
G01 X-0.6671 Y0.8297  
G01 X-0.6692 Y0.8231  
G01 X-0.6724 Y0.8169  
G01 X-0.6764 Y0.8113  
G00 Z0.0500  
G00 X-0.7401 Y0.9750  
G01 Z-0.0040 F10    
G01 X-0.8133 Y0.9750  F20    
G01 X-0.8142 Y0.9748  
G01 X-0.8159 Y0.9750  
G01 X-0.8176 Y0.9750  
G01 X-0.8185 Y0.9752  
G01 X-0.8194 Y0.9753  
G01 X-0.8210 Y0.9759  
G01 X-0.8227 Y0.9764  
G01 X-0.8235 Y0.9768  
G01 X-0.8244 Y0.9771  
G01 X-0.8258 Y0.9781  
G01 X-0.8273 Y0.9790  
G01 X-0.8279 Y0.9796  
G01 X-0.9379 Y1.0570  
G01 X-0.9637 Y1.0570  
G01 X-0.9710 Y1.0643  
G01 X-1.1093 Y1.0308  
G01 X-1.2612 Y0.9769  
G01 X-1.2615 Y0.9767  
G01 X-1.2636 Y0.9760  
G01 X-1.2658 Y0.9753  
G01 X-1.2661 Y0.9752  
G01 X-1.3506 Y0.9486  
G01 X-1.3707 Y0.9055  
G01 X-1.3683 Y0.8996  
G01 X-1.3670 Y0.8933  
G01 X-1.3670 Y0.8867  
G01 X-1.3683 Y0.8804  
G01 X-1.3708 Y0.8744  
G01 X-1.3744 Y0.8690  
G01 X-1.3790 Y0.8644  
G01 X-1.3844 Y0.8608  
G01 X-1.3904 Y0.8583  
G01 X-1.3967 Y0.8570  
G01 X-1.4033 Y0.8570  
G01 X-1.4096 Y0.8583  
G01 X-1.4156 Y0.8608  
G01 X-1.4210 Y0.8644  
G01 X-1.4256 Y0.8690  
G01 X-1.4292 Y0.8744  
G01 X-1.4317 Y0.8804  
G01 X-1.4330 Y0.8867  
G01 X-1.4330 Y0.8933  
G01 X-1.4317 Y0.8996  
G01 X-1.4292 Y0.9056  
G01 X-1.4256 Y0.9110  
G01 X-1.4210 Y0.9156  
G01 X-1.4156 Y0.9192  
G01 X-1.4096 Y0.9217  
G01 X-1.4070 Y0.9222  
G01 X-1.3841 Y0.9715  
G01 X-1.3840 Y0.9719  
G01 X-1.3829 Y0.9738  
G01 X-1.3820 Y0.9758  
G01 X-1.3817 Y0.9762  
G01 X-1.3815 Y0.9766  
G01 X-1.3800 Y0.9782  
G01 X-1.3786 Y0.9799  
G01 X-1.3783 Y0.9801  
G01 X-1.3780 Y0.9804  
G01 X-1.3761 Y0.9816  
G01 X-1.3743 Y0.9829  
G01 X-1.3739 Y0.9830  
G01 X-1.3735 Y0.9833  
G01 X-1.3714 Y0.9839  
G01 X-1.3694 Y0.9847  
G01 X-1.3689 Y0.9847  
G01 X-1.2764 Y1.0140  
G01 X-1.1232 Y1.0683  
G01 X-1.1223 Y1.0688  
G01 X-1.1207 Y1.0692  
G01 X-1.1192 Y1.0697  
G01 X-1.1182 Y1.0698  
G01 X-0.9830 Y1.1026  
G01 X-0.9830 Y1.1037  
G01 X-0.9637 Y1.1230  
G01 X-0.9363 Y1.1230  
G01 X-0.9170 Y1.1037  
G01 X-0.9170 Y1.0912  
G01 X-0.8087 Y1.0150  
G01 X-0.7425 Y1.0150  
G01 X-0.7424 Y1.0150  
G01 X-0.7399 Y1.0150  
G01 X-0.7374 Y1.0150  
G01 X-0.7372 Y1.0150  
G01 X-0.3809 Y1.0101  
G01 X-0.3440 Y1.0347  
G01 X-0.3440 Y1.0582  
G01 X-0.3182 Y1.0840  
G01 X-0.2818 Y1.0840  
G01 X-0.2578 Y1.0600  
G01 X-0.2422 Y1.0600  
G01 X-0.2182 Y1.0840  
G01 X-0.1818 Y1.0840  
G01 X-0.1560 Y1.0582  
G01 X-0.1560 Y1.0218  
G01 X-0.1818 Y0.9960  
G01 X-0.2182 Y0.9960  
G01 X-0.2422 Y1.0200  
G01 X-0.2578 Y1.0200  
G01 X-0.2818 Y0.9960  
G01 X-0.3182 Y0.9960  
G01 X-0.3229 Y1.0007  
G01 X-0.3624 Y0.9744  
G01 X-0.3629 Y0.9738  
G01 X-0.3646 Y0.9729  
G01 X-0.3661 Y0.9719  
G01 X-0.3668 Y0.9716  
G01 X-0.3675 Y0.9713  
G01 X-0.3693 Y0.9708  
G01 X-0.3711 Y0.9702  
G01 X-0.3719 Y0.9702  
G01 X-0.3726 Y0.9700  
G01 X-0.3745 Y0.9700  
G01 X-0.3763 Y0.9699  
G01 X-0.3771 Y0.9700  
G01 X-0.7401 Y0.9750  
G00 Z0.0500  
G00 X-0.7740 Y1.0350  
G01 Z-0.0040 F10    
G01 X-0.7763 Y1.0349  F20    
G01 X-0.7766 Y1.0349  
G01 X-0.7769 Y1.0349  
G01 X-0.7792 Y1.0354  
G01 X-0.7815 Y1.0359  
G01 X-0.7818 Y1.0360  
G01 X-0.7820 Y1.0361  
G01 X-0.7841 Y1.0372  
G01 X-0.7862 Y1.0382  
G01 X-0.7864 Y1.0384  
G01 X-0.7867 Y1.0386  
G01 X-0.7884 Y1.0402  
G01 X-0.7902 Y1.0417  
G01 X-0.7903 Y1.0419  
G01 X-0.7905 Y1.0421  
G01 X-0.7918 Y1.0441  
G01 X-0.8305 Y1.1023  
G01 X-0.9077 Y1.1794  
G01 X-1.0467 Y1.1702  
G01 X-1.0474 Y1.1700  
G01 X-1.0493 Y1.1700  
G01 X-1.0513 Y1.1699  
G01 X-1.0520 Y1.1700  
G01 X-1.0737 Y1.1700  
G01 X-1.0744 Y1.1690  
G01 X-1.0790 Y1.1644  
G01 X-1.0844 Y1.1608  
G01 X-1.0894 Y1.1587  
G01 X-1.1056 Y1.1099  
G01 X-1.1059 Y1.1085  
G01 X-1.1065 Y1.1074  
G01 X-1.1069 Y1.1062  
G01 X-1.1076 Y1.1050  
G01 X-1.1082 Y1.1038  
G01 X-1.1091 Y1.1028  
G01 X-1.1098 Y1.1018  
G01 X-1.1108 Y1.1009  
G01 X-1.1117 Y1.0998  
G01 X-1.1128 Y1.0991  
G01 X-1.1137 Y1.0983  
G01 X-1.1149 Y1.0977  
G01 X-1.1161 Y1.0969  
G01 X-1.1173 Y1.0965  
G01 X-1.1184 Y1.0959  
G01 X-1.1198 Y1.0957  
G01 X-1.3811 Y1.0069  
G01 X-1.3836 Y1.0060  
G01 X-1.3861 Y1.0052  
G01 X-1.4263 Y0.9918  
G01 X-1.4265 Y0.9917  
G01 X-1.4288 Y0.9910  
G01 X-1.4312 Y0.9902  
G01 X-1.4313 Y0.9902  
G01 X-1.4970 Y0.9694  
G01 X-1.4970 Y0.9663  
G01 X-1.5163 Y0.9470  
G01 X-1.5315 Y0.9470  
G01 X-1.6395 Y0.8174  
G01 X-1.6392 Y0.8169  
G01 X-1.6371 Y0.8103  
G01 X-1.6360 Y0.8035  
G01 X-1.6360 Y0.7965  
G01 X-1.6371 Y0.7897  
G01 X-1.6392 Y0.7831  
G01 X-1.6424 Y0.7769  
G01 X-1.6464 Y0.7713  
G01 X-1.6513 Y0.7664  
G01 X-1.6569 Y0.7624  
G01 X-1.6631 Y0.7592  
G01 X-1.6697 Y0.7571  
G01 X-1.6765 Y0.7560  
G01 X-1.6835 Y0.7560  
G01 X-1.6903 Y0.7571  
G01 X-1.6969 Y0.7592  
G01 X-1.7031 Y0.7624  
G01 X-1.7087 Y0.7664  
G01 X-1.7136 Y0.7713  
G01 X-1.7176 Y0.7769  
G01 X-1.7208 Y0.7831  
G01 X-1.7229 Y0.7897  
G01 X-1.7240 Y0.7965  
G01 X-1.7240 Y0.8035  
G01 X-1.7229 Y0.8103  
G01 X-1.7208 Y0.8169  
G01 X-1.7176 Y0.8231  
G01 X-1.7136 Y0.8287  
G01 X-1.7087 Y0.8336  
G01 X-1.7031 Y0.8376  
G01 X-1.6969 Y0.8408  
G01 X-1.6903 Y0.8429  
G01 X-1.6835 Y0.8440  
G01 X-1.6765 Y0.8440  
G01 X-1.6702 Y0.8430  
G01 X-1.5630 Y0.9716  
G01 X-1.5630 Y0.9937  
G01 X-1.5437 Y1.0130  
G01 X-1.5163 Y1.0130  
G01 X-1.5105 Y1.0071  
G01 X-1.4412 Y1.0290  
G01 X-1.3964 Y1.0440  
G01 X-1.1408 Y1.1307  
G01 X-1.1273 Y1.1714  
G01 X-1.1292 Y1.1744  
G01 X-1.1317 Y1.1804  
G01 X-1.1330 Y1.1867  
G01 X-1.1330 Y1.1933  
G01 X-1.1317 Y1.1996  
G01 X-1.1292 Y1.2056  
G01 X-1.1256 Y1.2110  
G01 X-1.1210 Y1.2156  
G01 X-1.1156 Y1.2192  
G01 X-1.1096 Y1.2217  
G01 X-1.1033 Y1.2230  
G01 X-1.0967 Y1.2230  
G01 X-1.0904 Y1.2217  
G01 X-1.0844 Y1.2192  
G01 X-1.0790 Y1.2156  
G01 X-1.0744 Y1.2110  
G01 X-1.0737 Y1.2100  
G01 X-1.0507 Y1.2100  
G01 X-0.9037 Y1.2198  
G01 X-0.8133 Y1.2476  
G01 X-0.8129 Y1.2503  
G01 X-0.8108 Y1.2569  
G01 X-0.8076 Y1.2631  
G01 X-0.8036 Y1.2687  
G01 X-0.7987 Y1.2736  
G01 X-0.7931 Y1.2776  
G01 X-0.7869 Y1.2808  
G01 X-0.7803 Y1.2829  
G01 X-0.7735 Y1.2840  
G01 X-0.7665 Y1.2840  
G01 X-0.7597 Y1.2829  
G01 X-0.7531 Y1.2808  
G01 X-0.7469 Y1.2776  
G01 X-0.7413 Y1.2736  
G01 X-0.7364 Y1.2687  
G01 X-0.7324 Y1.2631  
G01 X-0.7292 Y1.2569  
G01 X-0.7271 Y1.2503  
G01 X-0.7260 Y1.2435  
G01 X-0.7260 Y1.2365  
G01 X-0.7271 Y1.2297  
G01 X-0.7292 Y1.2231  
G01 X-0.7324 Y1.2169  
G01 X-0.7364 Y1.2113  
G01 X-0.7413 Y1.2064  
G01 X-0.7469 Y1.2024  
G01 X-0.7531 Y1.1992  
G01 X-0.7597 Y1.1971  
G01 X-0.7665 Y1.1960  
G01 X-0.7735 Y1.1960  
G01 X-0.7803 Y1.1971  
G01 X-0.7869 Y1.1992  
G01 X-0.7931 Y1.2024  
G01 X-0.7987 Y1.2064  
G01 X-0.8016 Y1.2094  
G01 X-0.8624 Y1.1907  
G01 X-0.8013 Y1.1296  
G01 X-0.7998 Y1.1283  
G01 X-0.7995 Y1.1277  
G01 X-0.7990 Y1.1273  
G01 X-0.7980 Y1.1256  
G01 X-0.7646 Y1.0754  
G01 X-0.6381 Y1.0801  
G01 X-0.6330 Y1.0789  
G01 X-0.6283 Y1.0764  
G01 X-0.6245 Y1.0729  
G01 X-0.6220 Y1.0690  
G01 X-0.4779 Y1.0690  
G01 X-0.4490 Y1.0979  
G01 X-0.4490 Y1.1921  
G01 X-0.4752 Y1.2183  
G01 X-0.4777 Y1.2227  
G01 X-0.4790 Y1.2275  
G01 X-0.4790 Y1.3533  
G01 X-0.4791 Y1.3534  
G01 X-0.4801 Y1.3586  
G01 X-0.4798 Y1.3638  
G01 X-0.4781 Y1.3688  
G01 X-0.4752 Y1.3732  
G01 X-0.4713 Y1.3767  
G01 X-0.3440 Y1.4404  
G01 X-0.3440 Y1.4582  
G01 X-0.3182 Y1.4840  
G01 X-0.2818 Y1.4840  
G01 X-0.2578 Y1.4600  
G01 X-0.2422 Y1.4600  
G01 X-0.2182 Y1.4840  
G01 X-0.1818 Y1.4840  
G01 X-0.1560 Y1.4582  
G01 X-0.1560 Y1.4218  
G01 X-0.1818 Y1.3960  
G01 X-0.2182 Y1.3960  
G01 X-0.2422 Y1.4200  
G01 X-0.2578 Y1.4200  
G01 X-0.2818 Y1.3960  
G01 X-0.3182 Y1.3960  
G01 X-0.3266 Y1.4044  
G01 X-0.4410 Y1.3471  
G01 X-0.4410 Y1.2379  
G01 X-0.4183 Y1.2152  
G01 X-0.4148 Y1.2117  
G01 X-0.4123 Y1.2073  
G01 X-0.4110 Y1.2025  
G01 X-0.4110 Y1.0875  
G01 X-0.4123 Y1.0827  
G01 X-0.4148 Y1.0783  
G01 X-0.4548 Y1.0383  
G01 X-0.4583 Y1.0348  
G01 X-0.4627 Y1.0323  
G01 X-0.4675 Y1.0310  
G01 X-0.6325 Y1.0310  
G01 X-0.6373 Y1.0323  
G01 X-0.6417 Y1.0348  
G01 X-0.6466 Y1.0397  
G01 X-0.7740 Y1.0350  
G00 Z0.0500  
G00 X-0.7387 Y1.1064  
G01 Z-0.0040 F10    
G01 X-0.7436 Y1.1113  F20    
G01 X-0.7476 Y1.1169  
G01 X-0.7508 Y1.1231  
G01 X-0.7529 Y1.1297  
G01 X-0.7540 Y1.1365  
G01 X-0.7540 Y1.1435  
G01 X-0.7529 Y1.1503  
G01 X-0.7508 Y1.1569  
G01 X-0.7476 Y1.1631  
G01 X-0.7436 Y1.1687  
G01 X-0.7387 Y1.1736  
G01 X-0.7331 Y1.1776  
G01 X-0.7269 Y1.1808  
G01 X-0.7203 Y1.1829  
G01 X-0.7135 Y1.1840  
G01 X-0.7065 Y1.1840  
G01 X-0.7039 Y1.1836  
G01 X-0.6840 Y1.2120  
G01 X-0.6876 Y1.2169  
G01 X-0.6908 Y1.2231  
G01 X-0.6929 Y1.2297  
G01 X-0.6940 Y1.2365  
G01 X-0.6940 Y1.2435  
G01 X-0.6929 Y1.2503  
G01 X-0.6908 Y1.2569  
G01 X-0.6895 Y1.2593  
G01 X-0.8330 Y1.3950  
G01 X-0.9106 Y1.3950  
G01 X-0.9558 Y1.2592  
G01 X-0.9564 Y1.2573  
G01 X-0.9567 Y1.2568  
G01 X-0.9569 Y1.2562  
G01 X-0.9580 Y1.2545  
G01 X-0.9590 Y1.2527  
G01 X-0.9594 Y1.2523  
G01 X-0.9598 Y1.2518  
G01 X-0.9613 Y1.2504  
G01 X-0.9627 Y1.2490  
G01 X-0.9632 Y1.2487  
G01 X-0.9637 Y1.2483  
G01 X-0.9655 Y1.2474  
G01 X-0.9673 Y1.2464  
G01 X-0.9679 Y1.2462  
G01 X-0.9684 Y1.2459  
G01 X-0.9704 Y1.2455  
G01 X-0.9724 Y1.2450  
G01 X-0.9730 Y1.2450  
G01 X-0.9736 Y1.2449  
G01 X-0.9756 Y1.2450  
G01 X-1.4935 Y1.2450  
G01 X-1.4946 Y1.2448  
G01 X-1.4961 Y1.2450  
G01 X-1.4976 Y1.2450  
G01 X-1.4987 Y1.2453  
G01 X-1.4998 Y1.2454  
G01 X-1.5012 Y1.2460  
G01 X-1.5027 Y1.2464  
G01 X-1.5037 Y1.2469  
G01 X-1.5047 Y1.2473  
G01 X-1.5060 Y1.2482  
G01 X-1.5073 Y1.2490  
G01 X-1.5081 Y1.2498  
G01 X-1.5090 Y1.2505  
G01 X-1.5099 Y1.2516  
G01 X-1.5110 Y1.2527  
G01 X-1.5116 Y1.2537  
G01 X-1.5499 Y1.3016  
G01 X-1.5510 Y1.3027  
G01 X-1.5516 Y1.3037  
G01 X-1.5523 Y1.3046  
G01 X-1.5529 Y1.3060  
G01 X-1.5536 Y1.3073  
G01 X-1.5539 Y1.3084  
G01 X-1.5544 Y1.3094  
G01 X-1.5546 Y1.3109  
G01 X-1.5550 Y1.3124  
G01 X-1.5550 Y1.3135  
G01 X-1.5552 Y1.3146  
G01 X-1.5550 Y1.3161  
G01 X-1.5550 Y1.3642  
G01 X-1.5551 Y1.3660  
G01 X-1.5550 Y1.3668  
G01 X-1.5550 Y1.3676  
G01 X-1.5545 Y1.3694  
G01 X-1.5542 Y1.3711  
G01 X-1.5539 Y1.3719  
G01 X-1.5536 Y1.3727  
G01 X-1.5527 Y1.3743  
G01 X-1.5520 Y1.3759  
G01 X-1.5514 Y1.3766  
G01 X-1.5510 Y1.3773  
G01 X-1.5497 Y1.3786  
G01 X-1.4971 Y1.4407  
G01 X-1.4895 Y1.4578  
G01 X-1.4930 Y1.4613  
G01 X-1.4930 Y1.4887  
G01 X-1.4737 Y1.5080  
G01 X-1.4463 Y1.5080  
G01 X-1.4270 Y1.4887  
G01 X-1.4270 Y1.4613  
G01 X-1.4463 Y1.4420  
G01 X-1.4528 Y1.4420  
G01 X-1.4607 Y1.4241  
G01 X-1.4608 Y1.4239  
G01 X-1.4618 Y1.4217  
G01 X-1.4628 Y1.4195  
G01 X-1.4629 Y1.4193  
G01 X-1.4630 Y1.4191  
G01 X-1.4646 Y1.4173  
G01 X-1.4661 Y1.4154  
G01 X-1.4663 Y1.4152  
G01 X-1.5150 Y1.3577  
G01 X-1.5150 Y1.3220  
G01 X-1.4854 Y1.2850  
G01 X-0.9894 Y1.2850  
G01 X-0.9442 Y1.4208  
G01 X-0.9436 Y1.4227  
G01 X-0.9433 Y1.4232  
G01 X-0.9431 Y1.4238  
G01 X-0.9420 Y1.4255  
G01 X-0.9410 Y1.4273  
G01 X-0.9406 Y1.4277  
G01 X-0.9402 Y1.4282  
G01 X-0.9387 Y1.4296  
G01 X-0.9373 Y1.4310  
G01 X-0.9368 Y1.4313  
G01 X-0.9363 Y1.4317  
G01 X-0.9345 Y1.4326  
G01 X-0.9327 Y1.4336  
G01 X-0.9321 Y1.4338  
G01 X-0.9316 Y1.4341  
G01 X-0.9296 Y1.4345  
G01 X-0.9276 Y1.4350  
G01 X-0.9270 Y1.4350  
G01 X-0.9264 Y1.4351  
G01 X-0.9244 Y1.4350  
G01 X-0.8253 Y1.4350  
G01 X-0.8229 Y1.4351  
G01 X-0.8226 Y1.4350  
G01 X-0.8224 Y1.4350  
G01 X-0.8201 Y1.4344  
G01 X-0.8178 Y1.4338  
G01 X-0.8176 Y1.4337  
G01 X-0.8173 Y1.4336  
G01 X-0.8152 Y1.4325  
G01 X-0.8132 Y1.4313  
G01 X-0.8130 Y1.4311  
G01 X-0.8127 Y1.4310  
G01 X-0.8111 Y1.4293  
G01 X-0.6568 Y1.2835  
G01 X-0.6535 Y1.2840  
G01 X-0.6465 Y1.2840  
G01 X-0.6397 Y1.2829  
G01 X-0.6331 Y1.2808  
G01 X-0.6269 Y1.2776  
G01 X-0.6213 Y1.2736  
G01 X-0.6164 Y1.2687  
G01 X-0.6124 Y1.2631  
G01 X-0.6092 Y1.2569  
G01 X-0.6071 Y1.2503  
G01 X-0.6060 Y1.2435  
G01 X-0.6060 Y1.2365  
G01 X-0.6071 Y1.2297  
G01 X-0.6092 Y1.2231  
G01 X-0.6124 Y1.2169  
G01 X-0.6164 Y1.2113  
G01 X-0.6213 Y1.2064  
G01 X-0.6269 Y1.2024  
G01 X-0.6331 Y1.1992  
G01 X-0.6397 Y1.1971  
G01 X-0.6464 Y1.1960  
G01 X-0.6711 Y1.1606  
G01 X-0.6692 Y1.1569  
G01 X-0.6671 Y1.1503  
G01 X-0.6660 Y1.1435  
G01 X-0.6660 Y1.1365  
G01 X-0.6671 Y1.1297  
G01 X-0.6692 Y1.1231  
G01 X-0.6724 Y1.1169  
G01 X-0.6764 Y1.1113  
G01 X-0.6813 Y1.1064  
G01 X-0.6869 Y1.1024  
G01 X-0.6931 Y1.0992  
G01 X-0.6997 Y1.0971  
G01 X-0.7065 Y1.0960  
G01 X-0.7135 Y1.0960  
G01 X-0.7203 Y1.0971  
G01 X-0.7269 Y1.0992  
G01 X-0.7331 Y1.1024  
G01 X-0.7387 Y1.1064  
G00 Z0.0500  
G00 X-0.5487 Y1.1064  
G01 Z-0.0040 F10    
G01 X-0.5536 Y1.1113  F20    
G01 X-0.5576 Y1.1169  
G01 X-0.5608 Y1.1231  
G01 X-0.5629 Y1.1297  
G01 X-0.5640 Y1.1365  
G01 X-0.5640 Y1.1435  
G01 X-0.5629 Y1.1503  
G01 X-0.5608 Y1.1569  
G01 X-0.5576 Y1.1631  
G01 X-0.5536 Y1.1687  
G01 X-0.5487 Y1.1736  
G01 X-0.5431 Y1.1776  
G01 X-0.5390 Y1.1797  
G01 X-0.5390 Y1.2621  
G01 X-0.7852 Y1.5083  
G01 X-0.7877 Y1.5127  
G01 X-0.7890 Y1.5175  
G01 X-0.7890 Y1.5941  
G01 X-0.8959 Y1.4872  
G01 X-0.8969 Y1.4860  
G01 X-0.8977 Y1.4855  
G01 X-0.8983 Y1.4848  
G01 X-0.8997 Y1.4840  
G01 X-0.9010 Y1.4831  
G01 X-0.9019 Y1.4828  
G01 X-0.9027 Y1.4823  
G01 X-0.9042 Y1.4819  
G01 X-0.9057 Y1.4813  
G01 X-0.9066 Y1.4812  
G01 X-0.9075 Y1.4810  
G01 X-0.9091 Y1.4810  
G01 X-0.9107 Y1.4808  
G01 X-0.9116 Y1.4810  
G01 X-0.9125 Y1.4810  
G01 X-0.9140 Y1.4814  
G01 X-0.9156 Y1.4817  
G01 X-0.9164 Y1.4821  
G01 X-0.9173 Y1.4823  
G01 X-0.9187 Y1.4831  
G01 X-1.0023 Y1.5211  
G01 X-1.0063 Y1.5170  
G01 X-1.0337 Y1.5170  
G01 X-1.0530 Y1.5363  
G01 X-1.0530 Y1.5637  
G01 X-1.0337 Y1.5830  
G01 X-1.0063 Y1.5830  
G01 X-0.9870 Y1.5637  
G01 X-0.9870 Y1.5559  
G01 X-0.9141 Y1.5227  
G01 X-0.8115 Y1.6254  
G01 X-0.8129 Y1.6297  
G01 X-0.8140 Y1.6365  
G01 X-0.8140 Y1.6435  
G01 X-0.8129 Y1.6503  
G01 X-0.8108 Y1.6569  
G01 X-0.8076 Y1.6631  
G01 X-0.8036 Y1.6687  
G01 X-0.7987 Y1.6736  
G01 X-0.7931 Y1.6776  
G01 X-0.7869 Y1.6808  
G01 X-0.7803 Y1.6829  
G01 X-0.7735 Y1.6840  
G01 X-0.7665 Y1.6840  
G01 X-0.7597 Y1.6829  
G01 X-0.7531 Y1.6808  
G01 X-0.7469 Y1.6776  
G01 X-0.7413 Y1.6736  
G01 X-0.7364 Y1.6687  
G01 X-0.7324 Y1.6631  
G01 X-0.7292 Y1.6569  
G01 X-0.7271 Y1.6503  
G01 X-0.7260 Y1.6435  
G01 X-0.7260 Y1.6365  
G01 X-0.7271 Y1.6297  
G01 X-0.7292 Y1.6231  
G01 X-0.7324 Y1.6169  
G01 X-0.7364 Y1.6113  
G01 X-0.7413 Y1.6064  
G01 X-0.7469 Y1.6024  
G01 X-0.7510 Y1.6003  
G01 X-0.7510 Y1.5279  
G01 X-0.5083 Y1.2852  
G01 X-0.5048 Y1.2817  
G01 X-0.5023 Y1.2773  
G01 X-0.5010 Y1.2725  
G01 X-0.5010 Y1.1797  
G01 X-0.4969 Y1.1776  
G01 X-0.4913 Y1.1736  
G01 X-0.4864 Y1.1687  
G01 X-0.4824 Y1.1631  
G01 X-0.4792 Y1.1569  
G01 X-0.4771 Y1.1503  
G01 X-0.4760 Y1.1435  
G01 X-0.4760 Y1.1365  
G01 X-0.4771 Y1.1297  
G01 X-0.4792 Y1.1231  
G01 X-0.4824 Y1.1169  
G01 X-0.4864 Y1.1113  
G01 X-0.4913 Y1.1064  
G01 X-0.4969 Y1.1024  
G01 X-0.5031 Y1.0992  
G01 X-0.5097 Y1.0971  
G01 X-0.5165 Y1.0960  
G01 X-0.5235 Y1.0960  
G01 X-0.5303 Y1.0971  
G01 X-0.5369 Y1.0992  
G01 X-0.5431 Y1.1024  
G01 X-0.5487 Y1.1064  
G00 Z0.0500  
G00 X-0.5305 Y1.4205  
G01 Z-0.0040 F10    
G01 X-0.5595 Y1.4495  F20    
G01 X-0.5595 Y1.4905  
G01 X-0.5305 Y1.5195  
G01 X-0.5018 Y1.5195  
G01 X-0.4171 Y1.6504  
G01 X-0.4160 Y1.6523  
G01 X-0.4156 Y1.6526  
G01 X-0.4154 Y1.6531  
G01 X-0.4138 Y1.6545  
G01 X-0.4123 Y1.6560  
G01 X-0.4118 Y1.6563  
G01 X-0.4115 Y1.6566  
G01 X-0.4096 Y1.6576  
G01 X-0.4077 Y1.6586  
G01 X-0.4072 Y1.6588  
G01 X-0.4068 Y1.6590  
G01 X-0.4047 Y1.6594  
G01 X-0.4026 Y1.6600  
G01 X-0.4021 Y1.6600  
G01 X-0.4016 Y1.6601  
G01 X-0.3995 Y1.6600  
G01 X-0.3422 Y1.6600  
G01 X-0.3182 Y1.6840  
G01 X-0.2818 Y1.6840  
G01 X-0.2578 Y1.6600  
G01 X-0.2422 Y1.6600  
G01 X-0.2182 Y1.6840  
G01 X-0.1818 Y1.6840  
G01 X-0.1560 Y1.6582  
G01 X-0.1560 Y1.6218  
G01 X-0.1818 Y1.5960  
G01 X-0.2182 Y1.5960  
G01 X-0.2422 Y1.6200  
G01 X-0.2578 Y1.6200  
G01 X-0.2818 Y1.5960  
G01 X-0.3182 Y1.5960  
G01 X-0.3422 Y1.6200  
G01 X-0.3891 Y1.6200  
G01 X-0.4680 Y1.4980  
G01 X-0.4605 Y1.4905  
G01 X-0.4605 Y1.4495  
G01 X-0.4895 Y1.4205  
G01 X-0.5305 Y1.4205  
G00 Z0.0500  
G00 X-0.5305 Y1.6505  
G01 Z-0.0040 F10    
G01 X-0.5438 Y1.6638  F20    
G01 X-0.6060 Y1.6371  
G01 X-0.6060 Y1.6365  
G01 X-0.6071 Y1.6297  
G01 X-0.6092 Y1.6231  
G01 X-0.6124 Y1.6169  
G01 X-0.6164 Y1.6113  
G01 X-0.6213 Y1.6064  
G01 X-0.6269 Y1.6024  
G01 X-0.6331 Y1.5992  
G01 X-0.6397 Y1.5971  
G01 X-0.6465 Y1.5960  
G01 X-0.6535 Y1.5960  
G01 X-0.6603 Y1.5971  
G01 X-0.6669 Y1.5992  
G01 X-0.6731 Y1.6024  
G01 X-0.6787 Y1.6064  
G01 X-0.6836 Y1.6113  
G01 X-0.6876 Y1.6169  
G01 X-0.6908 Y1.6231  
G01 X-0.6929 Y1.6297  
G01 X-0.6940 Y1.6365  
G01 X-0.6940 Y1.6435  
G01 X-0.6929 Y1.6503  
G01 X-0.6908 Y1.6569  
G01 X-0.6876 Y1.6631  
G01 X-0.6836 Y1.6687  
G01 X-0.6787 Y1.6736  
G01 X-0.6731 Y1.6776  
G01 X-0.6669 Y1.6808  
G01 X-0.6603 Y1.6829  
G01 X-0.6535 Y1.6840  
G01 X-0.6465 Y1.6840  
G01 X-0.6397 Y1.6829  
G01 X-0.6331 Y1.6808  
G01 X-0.6269 Y1.6776  
G01 X-0.6218 Y1.6739  
G01 X-0.5595 Y1.7005  
G01 X-0.5595 Y1.7205  
G01 X-0.5305 Y1.7495  
G01 X-0.4895 Y1.7495  
G01 X-0.4605 Y1.7205  
G01 X-0.4605 Y1.6795  
G01 X-0.4895 Y1.6505  
G01 X-0.5305 Y1.6505  
G00 Z0.0500  
G00 X-0.3440 Y1.7218  
G01 Z-0.0040 F10    
G01 X-0.3440 Y1.7582  F20    
G01 X-0.3182 Y1.7840  
G01 X-0.2818 Y1.7840  
G01 X-0.2560 Y1.7582  
G01 X-0.2560 Y1.7218  
G01 X-0.2818 Y1.6960  
G01 X-0.3182 Y1.6960  
G01 X-0.3440 Y1.7218  
G00 Z0.0500  
G00 X-0.2440 Y1.7218  
G01 Z-0.0040 F10    
G01 X-0.2440 Y1.7582  F20    
G01 X-0.2182 Y1.7840  
G01 X-0.1818 Y1.7840  
G01 X-0.1560 Y1.7582  
G01 X-0.1560 Y1.7218  
G01 X-0.1818 Y1.6960  
G01 X-0.2182 Y1.6960  
G01 X-0.2440 Y1.7218  
G00 Z0.0500  
G00 X-0.2440 Y1.5582  
G01 Z-0.0040 F10    
G01 X-0.2182 Y1.5840  F20    
G01 X-0.1818 Y1.5840  
G01 X-0.1560 Y1.5582  
G01 X-0.1560 Y1.5218  
G01 X-0.1818 Y1.4960  
G01 X-0.2182 Y1.4960  
G01 X-0.2440 Y1.5218  
G01 X-0.2440 Y1.5582  
G00 Z0.0500  
G00 X-0.2560 Y1.5582  
G01 Z-0.0040 F10    
G01 X-0.2560 Y1.5218  F20    
G01 X-0.2818 Y1.4960  
G01 X-0.3182 Y1.4960  
G01 X-0.3440 Y1.5218  
G01 X-0.3440 Y1.5582  
G01 X-0.3182 Y1.5840  
G01 X-0.2818 Y1.5840  
G01 X-0.2560 Y1.5582  
G00 Z0.0500  
G00 X-1.0563 Y1.5080  
G01 Z-0.0040 F10    
G01 X-1.0370 Y1.4887  F20    
G01 X-1.0370 Y1.4613  
G01 X-1.0500 Y1.4483  
G01 X-1.0500 Y1.3939  
G01 X-1.0460 Y1.3839  
G01 X-1.0397 Y1.3829  
G01 X-1.0331 Y1.3808  
G01 X-1.0269 Y1.3776  
G01 X-1.0213 Y1.3736  
G01 X-1.0164 Y1.3687  
G01 X-1.0124 Y1.3631  
G01 X-1.0092 Y1.3569  
G01 X-1.0071 Y1.3503  
G01 X-1.0060 Y1.3435  
G01 X-1.0060 Y1.3365  
G01 X-1.0071 Y1.3297  
G01 X-1.0092 Y1.3231  
G01 X-1.0124 Y1.3169  
G01 X-1.0164 Y1.3113  
G01 X-1.0213 Y1.3064  
G01 X-1.0269 Y1.3024  
G01 X-1.0331 Y1.2992  
G01 X-1.0397 Y1.2971  
G01 X-1.0465 Y1.2960  
G01 X-1.0535 Y1.2960  
G01 X-1.0603 Y1.2971  
G01 X-1.0669 Y1.2992  
G01 X-1.0731 Y1.3024  
G01 X-1.0787 Y1.3064  
G01 X-1.0836 Y1.3113  
G01 X-1.0876 Y1.3169  
G01 X-1.0908 Y1.3231  
G01 X-1.0929 Y1.3297  
G01 X-1.0940 Y1.3365  
G01 X-1.0940 Y1.3435  
G01 X-1.0929 Y1.3503  
G01 X-1.0908 Y1.3569  
G01 X-1.0876 Y1.3631  
G01 X-1.0836 Y1.3687  
G01 X-1.0832 Y1.3691  
G01 X-1.0880 Y1.3812  
G01 X-1.0886 Y1.3823  
G01 X-1.0890 Y1.3837  
G01 X-1.0895 Y1.3850  
G01 X-1.0897 Y1.3862  
G01 X-1.0900 Y1.3874  
G01 X-1.0900 Y1.3888  
G01 X-1.0902 Y1.3902  
G01 X-1.0900 Y1.3914  
G01 X-1.0900 Y1.4483  
G01 X-1.1030 Y1.4613  
G01 X-1.1030 Y1.4887  
G01 X-1.0837 Y1.5080  
G01 X-1.0563 Y1.5080  
G00 Z0.0500  
G00 X-1.3502 Y1.5121  
G01 Z-0.0040 F10    
G01 X-1.3550 Y1.4591  F20    
G01 X-1.3550 Y1.3852  
G01 X-1.3550 Y1.3827  
G01 X-1.3550 Y1.3825  
G01 X-1.3550 Y1.3824  
G01 X-1.3556 Y1.3800  
G01 X-1.3562 Y1.3776  
G01 X-1.3563 Y1.3774  
G01 X-1.3564 Y1.3773  
G01 X-1.3576 Y1.3751  
G01 X-1.3588 Y1.3730  
G01 X-1.3589 Y1.3729  
G01 X-1.3590 Y1.3727  
G01 X-1.3607 Y1.3710  
G01 X-1.3625 Y1.3692  
G01 X-1.3626 Y1.3691  
G01 X-1.3627 Y1.3690  
G01 X-1.3649 Y1.3678  
G01 X-1.4060 Y1.3431  
G01 X-1.4060 Y1.3365  
G01 X-1.4071 Y1.3297  
G01 X-1.4092 Y1.3231  
G01 X-1.4124 Y1.3169  
G01 X-1.4164 Y1.3113  
G01 X-1.4213 Y1.3064  
G01 X-1.4269 Y1.3024  
G01 X-1.4331 Y1.2992  
G01 X-1.4397 Y1.2971  
G01 X-1.4465 Y1.2960  
G01 X-1.4535 Y1.2960  
G01 X-1.4603 Y1.2971  
G01 X-1.4669 Y1.2992  
G01 X-1.4731 Y1.3024  
G01 X-1.4787 Y1.3064  
G01 X-1.4836 Y1.3113  
G01 X-1.4876 Y1.3169  
G01 X-1.4908 Y1.3231  
G01 X-1.4929 Y1.3297  
G01 X-1.4940 Y1.3365  
G01 X-1.4940 Y1.3435  
G01 X-1.4929 Y1.3503  
G01 X-1.4908 Y1.3569  
G01 X-1.4876 Y1.3631  
G01 X-1.4836 Y1.3687  
G01 X-1.4787 Y1.3736  
G01 X-1.4731 Y1.3776  
G01 X-1.4669 Y1.3808  
G01 X-1.4603 Y1.3829  
G01 X-1.4535 Y1.3840  
G01 X-1.4465 Y1.3840  
G01 X-1.4397 Y1.3829  
G01 X-1.4331 Y1.3808  
G01 X-1.4269 Y1.3776  
G01 X-1.4266 Y1.3774  
G01 X-1.3950 Y1.3963  
G01 X-1.3950 Y1.4583  
G01 X-1.3952 Y1.4592  
G01 X-1.3950 Y1.4609  
G01 X-1.3950 Y1.4626  
G01 X-1.3948 Y1.4635  
G01 X-1.3908 Y1.5067  
G01 X-1.4027 Y1.5170  
G01 X-1.4237 Y1.5170  
G01 X-1.4430 Y1.5363  
G01 X-1.4430 Y1.5580  
G01 X-1.4743 Y1.5950  
G01 X-1.5658 Y1.5950  
G01 X-1.6697 Y1.4729  
G01 X-1.6614 Y1.2399  
G01 X-1.6569 Y1.2376  
G01 X-1.6513 Y1.2336  
G01 X-1.6464 Y1.2287  
G01 X-1.6424 Y1.2231  
G01 X-1.6392 Y1.2169  
G01 X-1.6371 Y1.2103  
G01 X-1.6360 Y1.2035  
G01 X-1.6360 Y1.1965  
G01 X-1.6371 Y1.1897  
G01 X-1.6392 Y1.1831  
G01 X-1.6424 Y1.1769  
G01 X-1.6464 Y1.1713  
G01 X-1.6513 Y1.1664  
G01 X-1.6569 Y1.1624  
G01 X-1.6631 Y1.1592  
G01 X-1.6697 Y1.1571  
G01 X-1.6765 Y1.1560  
G01 X-1.6835 Y1.1560  
G01 X-1.6903 Y1.1571  
G01 X-1.6969 Y1.1592  
G01 X-1.7031 Y1.1624  
G01 X-1.7087 Y1.1664  
G01 X-1.7136 Y1.1713  
G01 X-1.7176 Y1.1769  
G01 X-1.7208 Y1.1831  
G01 X-1.7229 Y1.1897  
G01 X-1.7240 Y1.1965  
G01 X-1.7240 Y1.2035  
G01 X-1.7229 Y1.2103  
G01 X-1.7208 Y1.2169  
G01 X-1.7176 Y1.2231  
G01 X-1.7136 Y1.2287  
G01 X-1.7087 Y1.2336  
G01 X-1.7031 Y1.2376  
G01 X-1.7014 Y1.2385  
G01 X-1.7100 Y1.4788  
G01 X-1.7101 Y1.4810  
G01 X-1.7101 Y1.4815  
G01 X-1.7101 Y1.4819  
G01 X-1.7096 Y1.4841  
G01 X-1.7092 Y1.4862  
G01 X-1.7090 Y1.4866  
G01 X-1.7089 Y1.4870  
G01 X-1.7079 Y1.4890  
G01 X-1.7069 Y1.4910  
G01 X-1.7066 Y1.4913  
G01 X-1.7064 Y1.4917  
G01 X-1.7049 Y1.4933  
G01 X-1.5914 Y1.6266  
G01 X-1.5910 Y1.6273  
G01 X-1.5897 Y1.6286  
G01 X-1.5885 Y1.6300  
G01 X-1.5879 Y1.6304  
G01 X-1.5873 Y1.6310  
G01 X-1.5857 Y1.6319  
G01 X-1.5842 Y1.6330  
G01 X-1.5834 Y1.6332  
G01 X-1.5827 Y1.6336  
G01 X-1.5809 Y1.6341  
G01 X-1.5792 Y1.6347  
G01 X-1.5784 Y1.6348  
G01 X-1.5776 Y1.6350  
G01 X-1.5758 Y1.6350  
G01 X-1.5740 Y1.6351  
G01 X-1.5732 Y1.6350  
G01 X-1.4668 Y1.6350  
G01 X-1.4660 Y1.6351  
G01 X-1.4642 Y1.6350  
G01 X-1.4624 Y1.6350  
G01 X-1.4616 Y1.6348  
G01 X-1.4607 Y1.6347  
G01 X-1.4590 Y1.6341  
G01 X-1.4573 Y1.6336  
G01 X-1.4566 Y1.6332  
G01 X-1.4558 Y1.6329  
G01 X-1.4543 Y1.6319  
G01 X-1.4527 Y1.6310  
G01 X-1.4521 Y1.6304  
G01 X-1.4514 Y1.6299  
G01 X-1.4503 Y1.6286  
G01 X-1.4490 Y1.6273  
G01 X-1.4486 Y1.6266  
G01 X-1.4117 Y1.5830  
G01 X-1.3963 Y1.5830  
G01 X-1.3770 Y1.5637  
G01 X-1.3770 Y1.5477  
G01 X-1.3576 Y1.5307  
G01 X-1.3563 Y1.5298  
G01 X-1.3556 Y1.5290  
G01 X-1.3548 Y1.5283  
G01 X-1.3540 Y1.5270  
G01 X-1.3529 Y1.5258  
G01 X-1.3525 Y1.5248  
G01 X-1.3519 Y1.5239  
G01 X-1.3514 Y1.5224  
G01 X-1.3507 Y1.5210  
G01 X-1.3506 Y1.5200  
G01 X-1.3502 Y1.5190  
