(/Applications/pcbgcode.repo/pcb-gcode.ulp)
(Copyright 2005 - 2012 by John Johnson)
(See readme.txt for licensing terms.)
(This file generated from the board:)
(.../eurorack/EFM_slide/eagle/efm_slide.brd)
(Current profile is .../pcbgcode.repo/profiles/mach.pp  )
(This file generated 6/16/15 9:42 PM)
(Settings from pcb-machine.h)
(spindle on time = 0.0000)
(spindle speed = 15000.0000)
(milling depth = -0.0630)
(tool change at 0.0000  0.0000  3.0000  )
(feed rate xy = F10    )
(feed rate z  = F5     )
(Z Axis Settings)
(  High     Up        Down     Drill)
(1.0000  	0.0500  	-0.0040 	-0.0730 )
(Settings from pcb-defaults.h)
(isolate min = 0.0010)
(isolate max = 0.0050)
(isolate step = 0.0010)
(Generated bottom outlines, bottom drill, )
(Unit of measure: inch)
(Inch Mode)
G20
(Absolute Coordinates)
G90
S15000
G00 Z1.0000  
G00 X0.0000  Y0.0000  
M03
G04 P0.000000
G00 Z0.0500  
G01 Z-0.0630 F5     
G01 X-0.0600 Y0.0000  F10    
G01 X-0.0600 Y1.9100  
G01 X1.5500  Y1.9100  
G01 X1.9000  Y1.5600  
G01 X1.9000  Y0.6800  
G01 X1.6400  Y0.4200  
G01 X1.2700  Y0.4200  
G01 X1.1500  Y0.3000  
G01 X1.0700  Y0.3000  
G01 X0.7400  Y-0.0300 
G01 X0.0400  Y-0.0300 
G01 X-0.0400 Y0.0500  
G00 Z1.0000  
M05
M02
