(/Applications/pcbgcode.repo/pcb-gcode.ulp)
(Copyright 2005 - 2012 by John Johnson)
(See readme.txt for licensing terms.)
(This file generated from the board:)
(.../eurorack/EFM_slide/eagle/efm_slide.brd)
(Current profile is .../pcbgcode.repo/profiles/mach.pp  )
(This file generated 6/16/15 9:42 PM)
(Settings from pcb-machine.h)
(spindle on time = 0.0000)
(spindle speed = 20000.0000)
(tool change at 0.0000  0.0000  3.0000  )
(feed rate xy = F0     )
(feed rate z  = F20    )
(Z Axis Settings)
(  High     Up        Down     Drill)
(1.0000  	0.0500  	-0.0040 	-0.0730 )
(Settings from pcb-defaults.h)
(isolate min = 0.0010)
(isolate max = 0.0050)
(isolate step = 0.0010)
(Generated bottom outlines, bottom drill, )
(Unit of measure: inch)
( Tool|       Size       |  Min Sub |  Max Sub |   Count )
( T01 | 0.813mm 0.0320in | 0.0000in | 0.0000in |       0 )
( T02 | 0.900mm 0.0354in | 0.0000in | 0.0000in |       0 )
( T03 | 0.991mm 0.0390in | 0.0000in | 0.0000in |       0 )
( T04 | 1.016mm 0.0400in | 0.0000in | 0.0000in |       0 )
( T05 | 1.200mm 0.0472in | 0.0000in | 0.0000in |       0 )
(Inch Mode)
G20
(Absolute Coordinates)
G90
S20000
G00 Z1.0000  
G00 X0.0000  Y0.0000  
M03
G04 P0.000000
M05
G00 Z3.0000  
M06 T01  ; 0.0320  
G01 Z0.0000  F20    
M06 
G00 Z0.0500  
M03
G04 P0.000000
G82 X-0.9500 Y0.9900  Z-0.0730 F20    R0.0500  P0.010000
G82 X-0.9500 Y1.0900  
G82 X-1.1000 Y1.1900  
G82 X-1.2000 Y1.1900  
G82 X-1.3000 Y1.1900  
G82 X-1.4000 Y1.1900  
G82 X-1.5300 Y1.0800  
G82 X-1.5300 Y0.9800  
G82 X-1.4000 Y0.8900  
G82 X-1.3000 Y0.8900  
G82 X-1.2000 Y0.8900  
G82 X-1.1000 Y0.8900  
G82 X-1.3800 Y0.6400  
G82 X-1.4800 Y0.6400  
G82 X-1.4600 Y1.4750  
G82 X-1.4100 Y1.5500  
G82 X-1.5100 Y1.5500  
G82 X-1.1200 Y1.5500  
G82 X-1.0700 Y1.4750  
G82 X-1.0200 Y1.5500  
M05
G00 Z3.0000  
G00 X0.0000  Y0.0000  
M06 T02  ; 0.0354  
G01 Z0.0000  F20    
M06 
G00 Z0.0500  
M03
G04 P0.000000
G82 X-0.1000 Y0.4400  Z-0.0730 F20    R0.0500  P0.010000
G82 X-0.5000 Y0.4400  
G82 X-0.6000 Y0.2900  
G82 X-0.7500 Y0.5900  
G82 X-0.6000 Y0.6900  
G82 X-0.5200 Y0.8400  
G82 X-0.7100 Y0.8400  
G82 X-0.7100 Y1.1400  
G82 X-0.6500 Y1.2400  
G82 X-0.7700 Y1.2400  
G82 X-0.5200 Y1.1400  
G82 X-0.6500 Y1.6400  
G82 X-0.7700 Y1.6400  
G82 X-1.0500 Y1.3400  
G82 X-1.4500 Y1.3400  
G82 X-1.6800 Y1.2000  
G82 X-1.6800 Y0.8000  
G82 X-1.1500 Y0.5900  
M05
G00 Z3.0000  
G00 X0.0000  Y0.0000  
M06 T03  ; 0.0390  
G01 Z0.0000  F20    
M06 
G00 Z0.0500  
M03
G04 P0.000000
G82 X-0.3300 Y0.7100  Z-0.0730 F20    R0.0500  P0.010000
G82 X-0.4300 Y0.7100  
G82 X-0.3800 Y0.6100  
M05
G00 Z3.0000  
G00 X0.0000  Y0.0000  
M06 T04  ; 0.0400  
G01 Z0.0000  F20    
M06 
G00 Z0.0500  
M03
G04 P0.000000
G82 X-0.1400 Y0.8000  Z-0.0730 F20    R0.0500  P0.010000
G82 X-0.2000 Y1.0400  
G82 X-0.2000 Y1.1400  
G82 X-0.3000 Y1.1400  
G82 X-0.3000 Y1.0400  
G82 X-0.3000 Y1.2400  
G82 X-0.2000 Y1.2400  
G82 X-0.2000 Y1.3400  
G82 X-0.2000 Y1.4400  
G82 X-0.3000 Y1.4400  
G82 X-0.3000 Y1.3400  
G82 X-0.3000 Y1.5400  
G82 X-0.3000 Y1.6400  
G82 X-0.2000 Y1.6400  
G82 X-0.2000 Y1.5400  
G82 X-0.2000 Y1.7400  
G82 X-0.3000 Y1.7400  
G82 X-0.5100 Y1.7000  
G82 X-0.5100 Y1.4700  
G82 X-1.1400 Y0.7700  
M05
G00 Z3.0000  
G00 X0.0000  Y0.0000  
M06 T05  ; 0.0472  
G01 Z0.0000  F20    
M06 
G00 Z0.0500  
M03
G04 P0.000000
G82 X-0.2031 Y0.1200  Z-0.0730 F20    R0.0500  P0.010000
G82 X-0.4000 Y0.1200  
G82 X-0.5969 Y0.1200  
T01 
G00 Z1.0000  
M05
M02
